; generated by PrusaSlicer 2.0.0+win64 on 2019-06-20 at 15:55:19

; 

; external perimeters extrusion width = 0.45mm
; perimeters extrusion width = 0.45mm
; infill extrusion width = 0.45mm
; solid infill extrusion width = 0.45mm
; top infill extrusion width = 0.40mm
; support material extrusion width = 0.35mm
; first layer extrusion width = 0.42mm

M73 P0 R129
M73 Q0 S130
M201 X1000 Y1000 Z1000 E5000 ; sets maximum accelerations, mm/sec^2
M203 X200 Y200 Z12 E120 ; sets maximum feedrates, mm/sec
M204 P1250 R1250 T1250 ; sets acceleration (P, T) and retract acceleration (R), mm/sec^2
M205 X8.00 Y8.00 Z0.40 E1.50 ; sets the jerk limits, mm/sec
M205 S0 T0 ; sets the minimum extruding and travel feed rate, mm/sec
M107
M115 U3.7.1 ; tell printer latest fw version
G90 ; use absolute coordinates
M83 ; extruder relative mode
M104 S215 ; set extruder temp
M140 S60 ; set bed temp
M190 S60 ; wait for bed temp
M109 S215 ; wait for extruder temp
G28 W ; home all without mesh bed level
G80 ; mesh bed leveling
G1 Y-3.0 F1000.0 ; go outside print area
G92 E0.0
G1 X60.0 E9.0 F1000.0 ; intro line
M73 Q0 S130
M73 P0 R129
G1 X100.0 E12.5 F1000.0 ; intro line
G92 E0.0
M221 S95
M900 K30 ; Filament gcode
G21 ; set units to millimeters
G90 ; use absolute coordinates
M83 ; use relative distances for extrusion
;BEFORE_LAYER_CHANGE
G92 E0.0
;0.2


G1 E-0.80000 F2100.00000
G1 Z0.600 F10800.000
;AFTER_LAYER_CHANGE
;0.2
G1 X105.072 Y63.699
G1 Z0.200
G1 E0.80000 F2100.00000
M204 S1000
G1 F1200
G1 X107.262 Y62.377 E0.08020
G1 X108.002 Y62.116 E0.02462
G1 X110.419 Y61.872 E0.07616
G1 X136.812 Y63.246 E0.82866
G1 X139.310 Y63.997 E0.08179
G1 X139.860 Y64.274 E0.01930
G1 X141.924 Y66.174 E0.08797
G1 X166.495 Y100.877 E1.33322
G1 X166.759 Y101.445 E0.01964
G1 X166.850 Y102.065 E0.01964
G1 X166.849 Y110.573 E0.26677
G1 X166.759 Y111.127 E0.01760
G1 X166.532 Y111.637 E0.01749
G1 X166.200 Y112.057 E0.01680
G1 X163.877 Y114.263 E0.10043
G1 X151.696 Y125.199 E0.51328
G1 X151.113 Y125.467 E0.02010
G1 X150.017 Y125.688 E0.03505
G1 X99.633 Y125.657 E1.57978
G1 X98.684 Y125.397 E0.03084
G1 X98.086 Y125.036 E0.02191
G1 X86.268 Y114.440 E0.49766
G1 X85.904 Y114.013 E0.01760
G1 X85.644 Y113.455 E0.01930
G1 X85.549 Y112.843 E0.01942
G1 X85.549 Y102.032 E0.33898
G1 X85.757 Y101.142 E0.02867
G1 X103.469 Y65.837 E1.23846
G1 X105.036 Y63.747 E0.08189
G1 F8640
G1 X107.262 Y62.377 E-0.60347
G1 X107.901 Y62.152 E-0.15653
G1 E-0.04000 F2100.00000
G1 Z0.800 F10800.000
G1 X112.625 Y103.547
G1 Z0.200
G1 E0.80000 F2100.00000
G1 F1200
G1 X112.625 Y101.788 E0.05516
G1 X113.379 Y101.788 E0.02365
G1 X113.379 Y103.377 E0.04984
G1 X114.133 Y103.377 E0.02365
G1 X114.133 Y101.788 E0.04984
G1 X114.887 Y101.788 E0.02365
G1 X114.887 Y103.377 E0.04984
G1 X115.641 Y103.377 E0.02365
G1 X115.641 Y92.801 E0.33161
G1 X116.396 Y92.801 E0.02365
G1 X116.396 Y103.377 E0.33161
G1 X117.150 Y103.377 E0.02365
G1 X117.150 Y92.801 E0.33161
G1 X117.904 Y92.801 E0.02365
G1 X117.904 Y103.377 E0.33161
G1 X118.658 Y103.377 E0.02365
G1 X118.658 Y92.801 E0.33161
G1 X119.412 Y92.801 E0.02365
G1 X119.412 Y103.377 E0.33161
G1 X120.166 Y103.377 E0.02365
G1 X120.166 Y92.801 E0.33161
G1 X120.921 Y92.801 E0.02365
G1 X120.921 Y103.377 E0.33161
G1 X121.675 Y103.377 E0.02365
G1 X121.675 Y92.801 E0.33161
G1 X122.429 Y92.801 E0.02365
G1 X122.429 Y103.377 E0.33161
G1 X123.183 Y103.377 E0.02365
G1 X123.183 Y92.801 E0.33161
G1 X123.937 Y92.801 E0.02365
G1 X123.937 Y103.377 E0.33161
G1 X124.691 Y103.377 E0.02365
G1 X124.691 Y92.801 E0.33161
G1 X125.445 Y92.801 E0.02365
G1 X125.445 Y103.377 E0.33161
G1 X126.200 Y103.377 E0.02365
G1 X126.200 Y92.801 E0.33161
G1 X126.954 Y92.801 E0.02365
G1 X126.954 Y103.377 E0.33161
G1 X127.708 Y103.377 E0.02365
G1 X127.708 Y92.801 E0.33161
G1 X128.462 Y92.801 E0.02365
G1 X128.462 Y103.377 E0.33161
G1 X129.216 Y103.377 E0.02365
G1 X129.216 Y92.801 E0.33161
G1 X129.970 Y92.801 E0.02365
G1 X129.970 Y103.377 E0.33161
G1 X130.725 Y103.377 E0.02365
G1 X130.725 Y92.801 E0.33161
G1 X131.479 Y92.801 E0.02365
G1 X131.479 Y103.377 E0.33161
G1 X132.233 Y103.377 E0.02365
G1 X132.233 Y92.801 E0.33161
G1 X132.987 Y92.801 E0.02365
G1 X132.987 Y103.377 E0.33161
G1 X133.741 Y103.377 E0.02365
G1 X133.741 Y92.801 E0.33161
G1 X134.495 Y92.801 E0.02365
G1 X134.495 Y103.377 E0.33161
G1 X135.250 Y103.377 E0.02365
G1 X135.250 Y101.788 E0.04984
G1 X136.004 Y101.788 E0.02365
G1 X136.004 Y103.377 E0.04984
G1 X136.758 Y103.377 E0.02365
G1 X136.758 Y101.788 E0.04984
G1 X137.512 Y101.788 E0.02365
G1 X137.512 Y103.547 E0.05516
G1 F8640
G1 X137.512 Y101.788 E-0.40621
G1 X136.758 Y101.788 E-0.17414
G1 X136.758 Y102.566 E-0.17966
G1 E-0.04000 F2100.00000
G1 Z0.800 F10800.000
G1 X142.791 Y101.618
G1 Z0.200
G1 E0.80000 F2100.00000
G1 F1200
G1 X142.791 Y108.013 E0.20051
G1 X143.545 Y108.013 E0.02365
G1 X143.545 Y101.788 E0.19519
G1 X144.299 Y101.788 E0.02365
G1 X144.299 Y108.013 E0.19519
G1 X145.054 Y108.013 E0.02365
G1 X145.054 Y101.788 E0.19519
G1 X145.808 Y101.788 E0.02365
G1 X145.808 Y108.013 E0.19519
G1 X146.562 Y108.013 E0.02365
G1 X146.562 Y101.788 E0.19519
G1 X147.316 Y101.788 E0.02365
G1 X147.316 Y109.256 E0.23417
G1 F8640
G1 X147.316 Y105.965 E-0.76000
G1 E-0.04000 F2100.00000
G1 Z0.800 F10800.000
G1 X151.087 Y97.267
G1 Z0.200
G1 E0.80000 F2100.00000
G1 F1200
G1 X151.087 Y114.966 E0.55495
G1 X151.841 Y114.966 E0.02365
G1 X151.841 Y97.437 E0.54963
G1 X152.595 Y97.437 E0.02365
G1 X152.595 Y114.966 E0.54963
G1 X153.349 Y114.966 E0.02365
G1 X153.349 Y97.437 E0.54963
G1 X154.104 Y97.437 E0.02365
G1 X154.104 Y114.966 E0.54963
G1 X154.858 Y114.966 E0.02365
G1 X154.858 Y97.437 E0.54963
G1 X155.612 Y97.437 E0.02365
G1 X155.612 Y114.966 E0.54963
G1 X156.366 Y114.966 E0.02365
G1 X156.366 Y97.437 E0.54963
G1 X157.120 Y97.437 E0.02365
G1 X157.120 Y114.966 E0.54963
G1 X157.869 Y114.966 E0.02348
G1 X157.874 Y102.072 E0.40428
G1 X158.628 Y102.072 E0.02365
G1 X158.628 Y112.648 E0.33161
G1 X159.383 Y112.648 E0.02365
G1 X159.383 Y102.072 E0.33161
G1 X160.137 Y102.072 E0.02365
G1 X160.137 Y112.648 E0.33161
G1 X160.891 Y112.648 E0.02365
G1 X160.891 Y102.072 E0.33161
G1 X161.645 Y102.072 E0.02365
G1 X161.645 Y112.648 E0.33161
G1 X162.399 Y112.648 E0.02365
G1 X162.399 Y102.072 E0.33161
G1 X163.153 Y102.072 E0.02365
G1 X163.153 Y110.331 E0.25894
G1 X163.908 Y110.331 E0.02365
G1 X163.908 Y102.072 E0.25894
G1 X164.662 Y102.072 E0.02365
G1 X164.662 Y110.500 E0.26426
G1 F8640
G1 X164.662 Y107.209 E-0.76000
G1 E-0.04000 F2100.00000
G1 Z0.800 F10800.000
G1 X106.591 Y108.182
G1 Z0.200
G1 E0.80000 F2100.00000
G1 F1200
G1 X106.591 Y101.788 E0.20051
G1 X105.837 Y101.788 E0.02365
G1 X105.837 Y108.013 E0.19519
G1 X105.083 Y108.013 E0.02365
G1 X105.083 Y101.788 E0.19519
G1 X104.329 Y101.788 E0.02365
G1 X104.329 Y108.013 E0.19519
G1 X103.575 Y108.013 E0.02365
G1 X103.575 Y101.788 E0.19519
G1 X102.821 Y101.788 E0.02365
G1 X102.821 Y108.182 E0.20051
G1 F8640
G1 X102.821 Y104.891 E-0.76000
G1 E-0.04000 F2100.00000
G1 Z0.800 F10800.000
G1 X99.050 Y115.136
G1 Z0.200
G1 E0.80000 F2100.00000
G1 F1200
G1 X99.050 Y97.437 E0.55495
G1 X98.296 Y97.437 E0.02365
G1 X98.296 Y114.966 E0.54963
G1 X97.542 Y114.966 E0.02365
G1 X97.542 Y97.437 E0.54963
G1 X96.787 Y97.437 E0.02365
G1 X96.787 Y114.966 E0.54963
G1 X96.033 Y114.966 E0.02365
G1 X96.033 Y97.437 E0.54963
G1 X95.279 Y97.437 E0.02365
G1 X95.279 Y114.966 E0.54963
G1 X94.525 Y114.966 E0.02365
G1 X94.525 Y97.437 E0.54963
G1 X93.771 Y97.437 E0.02365
G1 X93.771 Y114.966 E0.54963
M73 Q0 S129
M73 P0 R128
G1 X93.017 Y114.966 E0.02365
G1 X93.017 Y97.437 E0.54963
G1 X92.262 Y97.437 E0.02365
G1 X92.262 Y114.966 E0.54963
G1 X91.665 Y114.966 E0.01872
G1 X91.665 Y112.648 E0.07267
G1 X91.508 Y112.648 E0.00492
G1 X91.508 Y99.754 E0.40428
G1 X90.754 Y99.754 E0.02365
G1 X90.754 Y112.648 E0.40428
G1 X90.000 Y112.648 E0.02365
G1 X90.000 Y99.754 E0.40428
G1 X89.348 Y99.754 E0.02046
G1 X89.348 Y102.072 E0.07267
G1 X89.246 Y102.072 E0.00319
G1 X89.246 Y112.648 E0.33161
G1 X88.492 Y112.648 E0.02365
G1 X88.492 Y102.072 E0.33161
G1 X87.738 Y102.072 E0.02365
G1 X87.738 Y112.818 E0.33693
G1 F8640
G1 X87.738 Y109.527 E-0.76000
G1 E-0.04000 F2100.00000
G1 Z0.800 F10800.000
G1 X99.660 Y122.304
G1 Z0.200
G1 E0.80000 F2100.00000
G1 F1200
G1 X99.804 Y122.160 E0.00637
G1 X100.536 Y121.964 E0.02376
G1 X100.340 Y122.696 E0.02376
G1 X100.196 Y122.840 E0.00637
G1 X100.000 Y122.892 E0.00637
G1 X99.804 Y122.840 E0.00637
G1 X99.660 Y122.696 E0.00637
G1 X99.608 Y122.500 E0.00637
G1 X99.645 Y122.362 E0.00448
G1 F8640
G1 X99.804 Y122.160 E-0.05928
G1 X100.536 Y121.964 E-0.17495
G1 X100.340 Y122.696 E-0.17495
G1 X100.196 Y122.840 E-0.04688
G1 X100.000 Y122.892 E-0.04688
G1 X99.804 Y122.840 E-0.04688
G1 X99.660 Y122.696 E-0.04688
G1 X99.608 Y122.500 E-0.04688
G1 X99.645 Y122.362 E-0.03302
G1 E-0.12339 F2100.00000
G1 Z0.800 F10800.000
G1 X100.536 Y88.036
G1 Z0.200
G1 E0.80000 F2100.00000
G1 F1200
G1 X99.804 Y87.840 E0.02376
G1 X99.660 Y87.696 E0.00637
G1 X99.608 Y87.500 E0.00637
G1 X99.660 Y87.304 E0.00637
G1 X99.804 Y87.160 E0.00637
G1 X100.000 Y87.108 E0.00637
G1 X100.196 Y87.160 E0.00637
G1 X100.340 Y87.304 E0.00637
G1 X100.520 Y87.978 E0.02188
G1 F8640
G1 X99.804 Y87.840 E-0.16845
G1 X99.660 Y87.696 E-0.04688
G1 X99.608 Y87.500 E-0.04688
G1 X99.660 Y87.304 E-0.04688
G1 X99.804 Y87.160 E-0.04688
G1 X100.000 Y87.108 E-0.04688
G1 X100.196 Y87.160 E-0.04688
G1 X100.340 Y87.304 E-0.04688
G1 X100.520 Y87.978 E-0.16110
G1 E-0.14229 F2100.00000
G1 Z0.800 F10800.000
G1 X149.462 Y88.043
G1 Z0.200
G1 E0.80000 F2100.00000
G1 F1200
G1 X149.660 Y87.304 E0.02399
G1 X149.804 Y87.160 E0.00637
G1 X150.000 Y87.108 E0.00637
G1 X150.184 Y87.157 E0.00598
G1 X150.341 Y87.309 E0.00684
G1 X150.392 Y87.500 E0.00621
G1 X150.340 Y87.696 E0.00637
G1 X150.205 Y87.831 E0.00598
G1 X149.520 Y88.026 E0.02233
G1 F8640
G1 X149.660 Y87.304 E-0.16996
G1 X149.804 Y87.160 E-0.04688
G1 X150.000 Y87.108 E-0.04688
G1 X150.184 Y87.157 E-0.04407
G1 X150.341 Y87.309 E-0.05034
G1 X150.392 Y87.500 E-0.04570
G1 X150.340 Y87.696 E-0.04688
G1 X150.205 Y87.831 E-0.04407
G1 X149.520 Y88.026 E-0.16441
G1 E-0.14081 F2100.00000
G1 Z0.800 F10800.000
G1 X148.587 Y113.212
G1 Z0.200
G1 E0.80000 F2100.00000
G1 F1200
G1 X148.587 Y121.087 E0.24692
G1 X101.413 Y121.087 E1.47911
G1 X101.413 Y113.212 E0.24692
G1 X148.527 Y113.212 E1.47723
G1 X148.210 Y113.589 F10800.000
G1 F1200
G1 X148.210 Y120.710 E0.22327
G1 X101.790 Y120.710 E1.45547
G1 X101.790 Y113.589 E0.22327
G1 X148.150 Y113.589 E1.45359
G1 X148.609 Y113.569 F10800.000
G1 F8640
G1 X148.178 Y116.880 E-0.76000
G1 E-0.04000 F2100.00000
G1 Z0.800 F10800.000
G1 X114.413 Y88.913
G1 Z0.200
G1 E0.80000 F2100.00000
G1 F1200
G1 X135.587 Y88.913 E0.66390
G1 X135.587 Y100.787 E0.37230
G1 X148.587 Y100.787 E0.40761
G1 X148.587 Y110.087 E0.29160
G1 X101.413 Y110.087 E1.47911
G1 X101.413 Y100.787 E0.29160
G1 X114.413 Y100.787 E0.40761
G1 X114.413 Y88.973 E0.37042
G1 X114.790 Y89.290 F10800.000
G1 F1200
G1 X135.210 Y89.290 E0.64025
G1 X135.210 Y101.164 E0.37230
G1 X148.210 Y101.164 E0.40761
G1 X148.210 Y109.710 E0.26795
G1 X101.790 Y109.710 E1.45547
G1 X101.790 Y101.164 E0.26795
G1 X114.790 Y101.164 E0.40761
G1 X114.790 Y89.350 E0.37042
G1 X114.899 Y88.905 F10800.000
G1 F8640
G1 X118.081 Y89.340 E-0.76000
G1 E-0.04000 F2100.00000
G1 Z0.800 F10800.000
G1 X100.587 Y88.087
G1 Z0.200
G1 E0.80000 F2100.00000
G1 F1200
G1 X149.413 Y88.087 E1.53090
G1 X149.413 Y121.913 E1.06059
G1 X100.587 Y121.913 E1.53090
G1 X100.587 Y88.147 E1.05870
G1 F8640
G1 X103.879 Y88.143 E-0.76000
G1 E-0.04000 F2100.00000
G1 Z0.800 F10800.000
G1 X149.464 Y121.964
G1 Z0.200
G1 E0.80000 F2100.00000
G1 F1200
G1 X150.196 Y122.160 E0.02376
G1 X150.340 Y122.304 E0.00637
G1 X150.392 Y122.500 E0.00637
G1 X150.340 Y122.696 E0.00637
G1 X150.196 Y122.840 E0.00637
G1 X150.000 Y122.892 E0.00637
G1 X149.804 Y122.840 E0.00637
G1 X149.660 Y122.696 E0.00637
G1 X149.480 Y122.022 E0.02188
G1 X149.161 Y122.290 F10800.000
G1 F1200
G1 X100.839 Y122.290 E1.51511
G1 X100.678 Y122.891 E0.01952
G1 X100.391 Y123.178 E0.01270
G1 X100.000 Y123.283 E0.01270
G1 X99.609 Y123.178 E0.01270
G1 X99.322 Y122.891 E0.01270
G1 X99.217 Y122.500 E0.01270
G1 X99.322 Y122.109 E0.01270
G1 X99.609 Y121.822 E0.01270
G1 X100.210 Y121.661 E0.01952
G1 X100.210 Y88.339 E1.04480
G1 X99.609 Y88.178 E0.01952
G1 X99.322 Y87.891 E0.01270
G1 X99.217 Y87.500 E0.01270
G1 X99.322 Y87.109 E0.01270
G1 X99.609 Y86.822 E0.01270
G1 X100.000 Y86.717 E0.01270
G1 X100.391 Y86.822 E0.01270
G1 X100.678 Y87.109 E0.01270
G1 X100.839 Y87.710 E0.01952
G1 X149.161 Y87.710 E1.51511
G1 X149.322 Y87.109 E0.01952
G1 X149.609 Y86.822 E0.01270
G1 X150.000 Y86.717 E0.01270
G1 X150.376 Y86.818 E0.01222
G1 X150.678 Y87.110 E0.01317
G1 X150.783 Y87.500 E0.01264
G1 X150.678 Y87.891 E0.01270
G1 X150.402 Y88.167 E0.01222
G1 X149.790 Y88.342 E0.01996
G1 X149.790 Y121.661 E1.04471
G1 X150.391 Y121.822 E0.01952
G1 X150.678 Y122.109 E0.01270
G1 X150.783 Y122.500 E0.01270
G1 X150.678 Y122.891 E0.01270
G1 X150.391 Y123.178 E0.01270
G1 X150.000 Y123.283 E0.01270
G1 X149.609 Y123.178 E0.01270
G1 X149.322 Y122.891 E0.01270
G1 X149.177 Y122.348 E0.01764
G1 X149.099 Y121.895 F10800.000
G1 X149.737 Y122.154
G1 F1200
G1 X150.229 Y122.647 E0.02620
G1 F8640
G1 X149.737 Y122.154 E-0.16076
G1 E-0.63924 F2100.00000
G1 Z0.800 F10800.000
G1 X149.300 Y114.074
G1 Z0.200
G1 E0.80000 F2100.00000
G1 F1200
G1 X148.870 Y113.644 E0.01910
G1 X148.870 Y114.178 E0.01678
G1 X149.130 Y114.438 E0.01156
G1 X149.130 Y114.973 E0.01678
G1 X148.870 Y114.712 E0.01156
G1 X148.870 Y115.246 E0.01678
G1 X149.130 Y115.507 E0.01156
G1 X149.130 Y116.041 E0.01678
G1 X148.870 Y115.781 E0.01156
G1 X148.870 Y116.315 E0.01678
G1 X149.130 Y116.575 E0.01156
G1 X149.130 Y117.110 E0.01678
G1 X148.870 Y116.849 E0.01156
G1 X148.870 Y117.383 E0.01678
G1 X149.130 Y117.644 E0.01156
G1 X149.130 Y118.178 E0.01678
G1 X148.870 Y117.918 E0.01156
G1 X148.870 Y118.452 E0.01678
G1 X149.130 Y118.712 E0.01156
G1 X149.130 Y119.247 E0.01678
G1 X148.870 Y118.986 E0.01156
G1 X148.870 Y119.520 E0.01678
G1 X149.130 Y119.781 E0.01156
G1 X149.130 Y120.315 E0.01678
G1 X148.870 Y120.055 E0.01156
G1 X148.870 Y120.589 E0.01678
G1 X149.130 Y120.849 E0.01156
G1 X149.130 Y121.384 E0.01678
G1 X148.870 Y121.123 E0.01156
G1 X148.870 Y121.370 E0.00775
G1 X148.582 Y121.370 E0.00903
G1 X148.843 Y121.630 E0.01156
G1 X148.308 Y121.630 E0.01678
G1 X148.048 Y121.370 E0.01156
G1 X147.514 Y121.370 E0.01678
G1 X147.774 Y121.630 E0.01156
G1 X147.240 Y121.630 E0.01678
G1 X146.979 Y121.370 E0.01156
G1 X146.445 Y121.370 E0.01678
G1 X146.706 Y121.630 E0.01156
G1 X146.171 Y121.630 E0.01678
G1 X145.911 Y121.370 E0.01156
G1 X145.377 Y121.370 E0.01678
G1 X145.637 Y121.630 E0.01156
G1 X145.103 Y121.630 E0.01678
G1 X144.842 Y121.370 E0.01156
G1 X144.308 Y121.370 E0.01678
G1 X144.569 Y121.630 E0.01156
G1 X144.034 Y121.630 E0.01678
G1 X143.774 Y121.370 E0.01156
G1 X143.240 Y121.370 E0.01678
G1 X143.500 Y121.630 E0.01156
G1 X142.966 Y121.630 E0.01678
G1 X142.705 Y121.370 E0.01156
G1 X142.171 Y121.370 E0.01678
G1 X142.432 Y121.630 E0.01156
G1 X141.897 Y121.630 E0.01678
G1 X141.637 Y121.370 E0.01156
G1 X141.103 Y121.370 E0.01678
G1 X141.363 Y121.630 E0.01156
G1 X140.829 Y121.630 E0.01678
G1 X140.568 Y121.370 E0.01156
G1 X140.034 Y121.370 E0.01678
G1 X140.295 Y121.630 E0.01156
G1 X139.760 Y121.630 E0.01678
G1 X139.500 Y121.370 E0.01156
G1 X138.966 Y121.370 E0.01678
G1 X139.226 Y121.630 E0.01156
G1 X138.692 Y121.630 E0.01678
G1 X138.431 Y121.370 E0.01156
G1 X137.897 Y121.370 E0.01678
G1 X138.158 Y121.630 E0.01156
G1 X137.623 Y121.630 E0.01678
G1 X137.363 Y121.370 E0.01156
G1 X136.829 Y121.370 E0.01678
G1 X137.089 Y121.630 E0.01156
G1 X136.555 Y121.630 E0.01678
G1 X136.294 Y121.370 E0.01156
G1 X135.760 Y121.370 E0.01678
G1 X136.021 Y121.630 E0.01156
G1 X135.486 Y121.630 E0.01678
G1 X135.226 Y121.370 E0.01156
G1 X134.692 Y121.370 E0.01678
G1 X134.952 Y121.630 E0.01156
G1 X134.418 Y121.630 E0.01678
G1 X134.157 Y121.370 E0.01156
G1 X133.623 Y121.370 E0.01678
G1 X133.884 Y121.630 E0.01156
G1 X133.349 Y121.630 E0.01678
G1 X133.089 Y121.370 E0.01156
G1 X132.555 Y121.370 E0.01678
