; generated by PrusaSlicer 2.0.0+win64 on 2019-06-13 at 15:05:36

; 

; external perimeters extrusion width = 0.45mm
; perimeters extrusion width = 0.45mm
; infill extrusion width = 0.45mm
; solid infill extrusion width = 0.45mm
; top infill extrusion width = 0.40mm
; first layer extrusion width = 0.42mm

M73 P0 R136
M73 Q0 S138
M201 X1000 Y1000 Z1000 E5000 ; sets maximum accelerations, mm/sec^2
M203 X200 Y200 Z12 E120 ; sets maximum feedrates, mm/sec
M204 P1250 R1250 T1250 ; sets acceleration (P, T) and retract acceleration (R), mm/sec^2
M205 X8.00 Y8.00 Z0.40 E1.50 ; sets the jerk limits, mm/sec
M205 S0 T0 ; sets the minimum extruding and travel feed rate, mm/sec
M107
M115 U3.7.1 ; tell printer latest fw version
G90 ; use absolute coordinates
M83 ; extruder relative mode
M104 S215 ; set extruder temp
M140 S60 ; set bed temp
M190 S60 ; wait for bed temp
M109 S215 ; wait for extruder temp
G28 W ; home all without mesh bed level
G80 ; mesh bed leveling
G1 Y-3.0 F1000.0 ; go outside print area
G92 E0.0
G1 X60.0 E9.0 F1000.0 ; intro line
M73 Q0 S138
M73 P0 R136
G1 X100.0 E12.5 F1000.0 ; intro line
G92 E0.0
M221 S95
M900 K30 ; Filament gcode
G21 ; set units to millimeters
G90 ; use absolute coordinates
M83 ; use relative distances for extrusion
;BEFORE_LAYER_CHANGE
G92 E0.0
;0.2


G1 E-0.80000 F2100.00000
G1 Z0.600 F10800.000
;AFTER_LAYER_CHANGE
;0.2
G1 X14.527 Y29.186
G1 Z0.200
G1 E0.80000 F2100.00000
M204 S1000
G1 F1200
G1 X15.601 Y28.668 E0.03740
G1 X16.759 Y28.480 E0.03678
G1 X101.830 Y28.308 E2.66734
G1 X102.621 Y28.385 E0.02493
G1 X103.354 Y28.601 E0.02394
G1 X109.842 Y31.465 E0.22236
G1 X110.267 Y31.754 E0.01612
G1 X110.611 Y32.132 E0.01601
G1 X110.858 Y32.578 E0.01601
G1 X110.995 Y33.070 E0.01601
G1 X111.129 Y88.005 E1.72247
G1 X94.811 Y192.063 E3.30254
G1 X94.560 Y192.927 E0.02821
G1 X93.933 Y193.978 E0.03837
G1 X93.037 Y194.796 E0.03802
G1 X91.934 Y195.325 E0.03837
G1 X90.776 Y195.512 E0.03678
G1 X34.681 Y195.513 E1.75882
G1 X33.877 Y195.433 E0.02536
G1 X33.099 Y195.197 E0.02548
G1 X32.283 Y194.747 E0.02921
G1 X31.460 Y193.983 E0.03521
G1 X30.873 Y193.027 E0.03518
G1 X30.590 Y192.131 E0.02946
G1 X12.856 Y89.052 E3.27944
G1 X12.718 Y32.590 E1.77034
G1 X12.796 Y31.791 E0.02516
G1 X13.023 Y31.038 E0.02467
G1 X13.639 Y29.999 E0.03787
G1 X14.482 Y29.226 E0.03587
G1 F8640
G1 X15.601 Y28.668 E-0.28875
G1 X16.759 Y28.480 E-0.27087
G1 X17.627 Y28.479 E-0.20038
G1 E-0.04000 F2100.00000
G1 Z0.800 F10800.000
G1 X54.607 Y106.419
G1 Z0.200
G1 E0.80000 F2100.00000
G1 F1200
G1 X70.782 Y106.419 E0.50713
G1 X70.782 Y105.121 E0.04067
G1 X90.666 Y105.121 E0.62345
G1 X90.930 Y105.148 E0.00833
G1 X91.157 Y105.216 E0.00742
G1 X91.365 Y105.328 E0.00742
G1 X91.548 Y105.478 E0.00742
G1 X91.698 Y105.661 E0.00742
G1 X91.810 Y105.870 E0.00742
G1 X91.879 Y106.096 E0.00742
G1 X91.905 Y106.360 E0.00833
G1 X91.905 Y191.317 E2.66376
G1 X91.847 Y191.696 E0.01202
G1 X91.698 Y192.002 E0.01067
G1 X91.472 Y192.257 E0.01067
G1 X91.264 Y192.396 E0.00788
G1 X91.045 Y192.487 E0.00742
G1 X90.680 Y192.542 E0.01157
G1 X34.709 Y192.542 E1.75494
G1 X34.344 Y192.487 E0.01157
G1 X34.112 Y192.391 E0.00788
G1 X33.841 Y192.185 E0.01067
G1 X33.635 Y191.914 E0.01067
G1 X33.539 Y191.682 E0.00788
G1 X33.484 Y191.317 E0.01157
G1 X33.484 Y106.346 E2.66421
G1 X33.540 Y105.978 E0.01166
G1 X33.686 Y105.667 E0.01080
G1 X33.843 Y105.476 E0.00774
G1 X33.996 Y105.347 E0.00628
G1 X34.121 Y105.268 E0.00464
G1 X34.312 Y105.187 E0.00650
G1 X34.452 Y105.148 E0.00455
G1 X34.723 Y105.121 E0.00856
G1 X54.607 Y105.121 E0.62345
G1 X54.607 Y106.359 E0.03879
G1 X54.985 Y106.042 F10800.000
G1 F1200
G1 X70.405 Y106.042 E0.48348
G1 X70.405 Y104.744 E0.04067
G1 X90.684 Y104.744 E0.63586
G1 X91.004 Y104.776 E0.01007
G1 X91.302 Y104.866 E0.00975
G1 X91.576 Y105.013 E0.00975
G1 X91.816 Y105.210 E0.00975
G1 X92.013 Y105.450 E0.00975
G1 X92.160 Y105.725 E0.00975
G1 X92.250 Y106.022 E0.00975
G1 X92.282 Y106.342 E0.01007
G1 X92.282 Y191.326 E2.66463
G1 X92.274 Y191.482 E0.00488
G1 X92.211 Y191.797 E0.01007
G1 X92.162 Y191.934 E0.00456
G1 X92.013 Y192.213 E0.00991
G1 X91.813 Y192.457 E0.00991
G1 X91.705 Y192.555 E0.00456
G1 X91.442 Y192.730 E0.00991
G1 X91.155 Y192.849 E0.00975
G1 X90.845 Y192.911 E0.00991
G1 X90.689 Y192.919 E0.00488
G1 X34.700 Y192.919 E1.75552
G1 X34.544 Y192.911 E0.00488
G1 X34.234 Y192.849 E0.00991
G1 X33.942 Y192.728 E0.00991
G1 X33.817 Y192.654 E0.00456
G1 X33.573 Y192.453 E0.00991
G1 X33.372 Y192.209 E0.00991
G1 X33.298 Y192.084 E0.00456
G1 X33.177 Y191.792 E0.00991
G1 X33.115 Y191.482 E0.00991
G1 X33.107 Y191.326 E0.00488
G1 X33.107 Y106.337 E2.66479
G1 X33.115 Y106.181 E0.00488
G1 X33.177 Y105.870 E0.00994
G1 X33.274 Y105.629 E0.00817
G1 X33.374 Y105.452 E0.00635
G1 X33.574 Y105.209 E0.00986
G1 X33.773 Y105.042 E0.00817
G1 X33.945 Y104.933 E0.00638
G1 X34.187 Y104.830 E0.00825
G1 X34.383 Y104.776 E0.00635
G1 X34.705 Y104.744 E0.01016
G1 X54.985 Y104.744 E0.63586
G1 X54.985 Y105.982 E0.03879
G1 X55.177 Y106.392 F10800.000
G1 F8640
G1 X58.276 Y105.994 E-0.76000
G1 E-0.04000 F2100.00000
G1 Z0.800 F10800.000
G1 X54.067 Y105.235
G1 Z0.200
G1 E0.80000 F2100.00000
G1 F1200
G1 X54.325 Y105.493 E0.01146
G1 X54.325 Y106.027 E0.01676
G1 X53.702 Y105.404 E0.02762
G1 X53.169 Y105.404 E0.01676
G1 X91.622 Y143.858 E1.70701
M73 Q0 S137
M73 P0 R135
G1 X91.622 Y143.324 E0.01676
G1 X55.000 Y106.701 E1.62573
G1 X55.533 Y106.701 E0.01676
G1 X91.622 Y142.790 E1.60203
G1 X91.622 Y142.256 E0.01676
G1 X56.067 Y106.701 E1.57833
G1 X56.601 Y106.701 E0.01676
G1 X91.622 Y141.722 E1.55463
G1 X91.622 Y141.188 E0.01676
G1 X57.135 Y106.701 E1.53093
G1 X57.669 Y106.701 E0.01676
G1 X91.622 Y140.654 E1.50723
G1 X91.622 Y140.120 E0.01676
G1 X58.203 Y106.701 E1.48353
G1 X58.737 Y106.701 E0.01676
G1 X91.622 Y139.587 E1.45983
G1 X91.622 Y139.053 E0.01676
G1 X59.271 Y106.701 E1.43613
G1 X59.804 Y106.701 E0.01676
G1 X91.622 Y138.519 E1.41243
G1 X91.622 Y137.985 E0.01676
G1 X60.338 Y106.701 E1.38873
G1 X60.872 Y106.701 E0.01676
G1 X91.622 Y137.451 E1.36503
G1 X91.622 Y136.917 E0.01676
G1 X61.406 Y106.701 E1.34133
G1 X61.940 Y106.701 E0.01676
G1 X91.622 Y136.383 E1.31763
G1 X91.622 Y135.849 E0.01676
G1 X62.474 Y106.701 E1.29393
G1 X63.008 Y106.701 E0.01676
G1 X91.622 Y135.316 E1.27023
G1 X91.622 Y134.782 E0.01676
G1 X63.542 Y106.701 E1.24653
G1 X64.075 Y106.701 E0.01676
G1 X91.622 Y134.248 E1.22283
G1 X91.622 Y133.714 E0.01676
G1 X64.609 Y106.701 E1.19914
G1 X65.143 Y106.701 E0.01676
G1 X91.622 Y133.180 E1.17544
G1 X91.622 Y132.646 E0.01676
G1 X65.677 Y106.701 E1.15174
G1 X66.211 Y106.701 E0.01676
G1 X91.622 Y132.112 E1.12804
G1 X91.622 Y131.578 E0.01676
G1 X66.745 Y106.701 E1.10434
G1 X67.279 Y106.701 E0.01676
G1 X91.622 Y131.045 E1.08064
G1 X91.622 Y130.511 E0.01676
G1 X67.813 Y106.701 E1.05694
G1 X68.346 Y106.701 E0.01676
G1 X91.622 Y129.977 E1.03324
G1 X91.622 Y129.443 E0.01676
G1 X68.880 Y106.701 E1.00954
G1 X69.414 Y106.701 E0.01676
G1 X91.622 Y128.909 E0.98584
G1 X91.622 Y128.375 E0.01676
G1 X69.948 Y106.701 E0.96214
M73 Q1 S136
M73 P1 R134
G1 X70.482 Y106.701 E0.01676
G1 X91.622 Y127.841 E0.93844
G1 X91.622 Y127.307 E0.01676
G1 X71.016 Y106.701 E0.91474
G1 X71.064 Y106.701 E0.00153
G1 X71.064 Y106.216 E0.01523
G1 X91.622 Y126.774 E0.91258
G1 X91.622 Y126.240 E0.01676
G1 X71.064 Y105.682 E0.91258
G1 X71.064 Y105.404 E0.00873
G1 X71.320 Y105.404 E0.00803
G1 X91.622 Y125.706 E0.90122
G1 X91.622 Y125.172 E0.01676
G1 X71.854 Y105.404 E0.87752
G1 X72.388 Y105.404 E0.01676
G1 X91.622 Y124.638 E0.85382
G1 X91.622 Y124.104 E0.01676
G1 X72.922 Y105.404 E0.83012
G1 X73.456 Y105.404 E0.01676
G1 X91.622 Y123.570 E0.80642
G1 X91.622 Y123.036 E0.01676
G1 X73.990 Y105.404 E0.78273
G1 X74.524 Y105.404 E0.01676
G1 X91.622 Y122.503 E0.75903
G1 X91.622 Y121.969 E0.01676
G1 X75.057 Y105.404 E0.73533
G1 X75.591 Y105.404 E0.01676
G1 X91.622 Y121.435 E0.71163
G1 X91.622 Y120.901 E0.01676
G1 X76.125 Y105.404 E0.68793
G1 X76.659 Y105.404 E0.01676
G1 X91.622 Y120.367 E0.66423
G1 X91.622 Y119.833 E0.01676
G1 X77.193 Y105.404 E0.64053
G1 X77.727 Y105.404 E0.01676
G1 X91.622 Y119.299 E0.61683
G1 X91.622 Y118.765 E0.01676
G1 X78.261 Y105.404 E0.59313
G1 X78.794 Y105.404 E0.01676
G1 X91.622 Y118.232 E0.56943
G1 X91.622 Y117.698 E0.01676
G1 X79.328 Y105.404 E0.54573
G1 X79.862 Y105.404 E0.01676
G1 X91.622 Y117.164 E0.52203
G1 X91.622 Y116.630 E0.01676
G1 X80.396 Y105.404 E0.49833
G1 X80.930 Y105.404 E0.01676
G1 X91.622 Y116.096 E0.47463
G1 X91.622 Y115.562 E0.01676
G1 X81.464 Y105.404 E0.45093
G1 X81.998 Y105.404 E0.01676
G1 X91.622 Y115.028 E0.42723
G1 X91.622 Y114.494 E0.01676
G1 X82.532 Y105.404 E0.40353
G1 X83.065 Y105.404 E0.01676
G1 X91.622 Y113.961 E0.37983
G1 X91.622 Y113.427 E0.01676
G1 X83.599 Y105.404 E0.35613
G1 X84.133 Y105.404 E0.01676
G1 X91.622 Y112.893 E0.33243
G1 X91.622 Y112.359 E0.01676
G1 X84.667 Y105.404 E0.30873
G1 X85.201 Y105.404 E0.01676
G1 X91.622 Y111.825 E0.28503
G1 X91.622 Y111.291 E0.01676
G1 X85.735 Y105.404 E0.26133
G1 X86.269 Y105.404 E0.01676
G1 X91.622 Y110.757 E0.23763
G1 X91.622 Y110.223 E0.01676
G1 X86.803 Y105.404 E0.21393
G1 X87.336 Y105.404 E0.01676
G1 X91.622 Y109.690 E0.19023
G1 X91.622 Y109.156 E0.01676
G1 X87.870 Y105.404 E0.16653
G1 X88.404 Y105.404 E0.01676
G1 X91.622 Y108.622 E0.14283
G1 X91.622 Y108.088 E0.01676
G1 X88.938 Y105.404 E0.11914
G1 X89.472 Y105.404 E0.01676
G1 X91.622 Y107.554 E0.09544
G1 X91.622 Y107.020 E0.01676
G1 X90.006 Y105.404 E0.07174
G1 X90.540 Y105.404 E0.01676
G1 X91.792 Y106.656 E0.05557
G1 F8640
G1 X90.540 Y105.404 E-0.40877
G1 X90.006 Y105.404 E-0.12327
G1 X90.704 Y106.102 E-0.22796
G1 E-0.04000 F2100.00000
G1 Z0.800 F10800.000
G1 X91.792 Y144.561
G1 Z0.200
G1 E0.80000 F2100.00000
G1 F1200
G1 X52.635 Y105.404 E1.73824
G1 X52.101 Y105.404 E0.01676
G1 X91.622 Y144.925 E1.75441
G1 X91.622 Y145.459 E0.01676
G1 X51.567 Y105.404 E1.77811
G1 X51.033 Y105.404 E0.01676
G1 X91.622 Y145.993 E1.80181
G1 X91.622 Y146.527 E0.01676
G1 X50.499 Y105.404 E1.82551
G1 X49.965 Y105.404 E0.01676
G1 X91.622 Y147.061 E1.84921
G1 X91.622 Y147.595 E0.01676
G1 X49.431 Y105.404 E1.87291
G1 X48.898 Y105.404 E0.01676
G1 X91.622 Y148.129 E1.89661
G1 X91.622 Y148.662 E0.01676
G1 X48.364 Y105.404 E1.92031
M73 Q2 S135
M73 P2 R133
G1 X47.830 Y105.404 E0.01676
G1 X91.622 Y149.196 E1.94401
G1 X91.622 Y149.730 E0.01676
G1 X47.296 Y105.404 E1.96771
G1 X46.762 Y105.404 E0.01676
G1 X91.622 Y150.264 E1.99141
G1 X91.622 Y150.798 E0.01676
G1 X46.228 Y105.404 E2.01511
G1 X45.694 Y105.404 E0.01676
G1 X91.622 Y151.332 E2.03881
G1 X91.622 Y151.866 E0.01676
G1 X45.160 Y105.404 E2.06251
G1 X44.627 Y105.404 E0.01676
G1 X91.622 Y152.400 E2.08621
G1 X91.622 Y152.933 E0.01676
G1 X44.093 Y105.404 E2.10990
G1 X43.559 Y105.404 E0.01676
G1 X91.622 Y153.467 E2.13360
G1 X91.622 Y154.001 E0.01676
G1 X43.025 Y105.404 E2.15730
G1 X42.491 Y105.404 E0.01676
G1 X91.622 Y154.535 E2.18100
G1 X91.622 Y155.069 E0.01676
G1 X41.957 Y105.404 E2.20470
G1 X41.423 Y105.404 E0.01676
G1 X91.622 Y155.603 E2.22840
G1 X91.622 Y156.137 E0.01676
G1 X40.889 Y105.404 E2.25210
G1 X40.356 Y105.404 E0.01676
G1 X91.622 Y156.671 E2.27580
G1 X91.622 Y157.204 E0.01676
G1 X39.822 Y105.404 E2.29950
G1 X39.288 Y105.404 E0.01676
G1 X91.622 Y157.738 E2.32320
G1 X91.622 Y158.272 E0.01676
G1 X38.754 Y105.404 E2.34690
M73 Q3 S134
M73 P3 R132
G1 X38.220 Y105.404 E0.01676
G1 X91.622 Y158.806 E2.37060
G1 X91.622 Y159.340 E0.01676
G1 X37.686 Y105.404 E2.39430
G1 X37.152 Y105.404 E0.01676
G1 X91.622 Y159.874 E2.41800
G1 X91.622 Y160.408 E0.01676
G1 X36.618 Y105.404 E2.44170
G1 X36.085 Y105.404 E0.01676
G1 X91.622 Y160.942 E2.46540
G1 X91.622 Y161.475 E0.01676
G1 X35.551 Y105.404 E2.48910
G1 X35.017 Y105.404 E0.01676
G1 X91.622 Y162.009 E2.51280
G1 X91.622 Y162.543 E0.01676
G1 X34.506 Y105.427 E2.53549
G1 X34.253 Y105.519 E0.00845
G1 X34.163 Y105.576 E0.00333
G1 X34.140 Y105.595 E0.00095
G1 X91.622 Y163.077 E2.55171
G1 X91.622 Y163.611 E0.01676
G1 X33.896 Y105.885 E2.56256
G1 X33.813 Y106.061 E0.00611
G1 X33.777 Y106.300 E0.00759
G1 X91.622 Y164.145 E2.56782
G1 X91.622 Y164.679 E0.01676
G1 X33.767 Y106.824 E2.56827
G1 X33.767 Y107.358 E0.01676
G1 X91.622 Y165.213 E2.56827
G1 X91.622 Y165.746 E0.01676
G1 X33.767 Y107.892 E2.56827
G1 X33.767 Y108.426 E0.01676
G1 X91.622 Y166.280 E2.56827
M73 Q3 S133
M73 P3 R131
G1 X91.622 Y166.814 E0.01676
G1 X33.767 Y108.960 E2.56827
G1 X33.767 Y109.493 E0.01676
G1 X91.622 Y167.348 E2.56827
G1 X91.622 Y167.882 E0.01676
G1 X33.767 Y110.027 E2.56827
G1 X33.767 Y110.561 E0.01676
G1 X91.622 Y168.416 E2.56827
G1 X91.622 Y168.950 E0.01676
G1 X33.767 Y111.095 E2.56827
G1 X33.767 Y111.629 E0.01676
G1 X91.622 Y169.484 E2.56827
G1 X91.622 Y170.017 E0.01676
G1 X33.767 Y112.163 E2.56827
G1 X33.767 Y112.697 E0.01676
G1 X91.622 Y170.551 E2.56827
G1 X91.622 Y171.085 E0.01676
G1 X33.767 Y113.231 E2.56827
G1 X33.767 Y113.764 E0.01676
G1 X91.622 Y171.619 E2.56827
G1 X91.622 Y172.153 E0.01676
G1 X33.767 Y114.298 E2.56827
G1 X33.767 Y114.832 E0.01676
G1 X91.622 Y172.687 E2.56827
G1 X91.622 Y173.221 E0.01676
G1 X33.767 Y115.366 E2.56827
G1 X33.767 Y115.900 E0.01676
G1 X91.622 Y173.755 E2.56827
G1 X91.622 Y174.288 E0.01676
G1 X33.767 Y116.434 E2.56827
M73 Q4 S132
M73 P4 R129
G1 X33.767 Y116.968 E0.01676
G1 X91.622 Y174.822 E2.56827
G1 X91.622 Y175.356 E0.01676
G1 X33.767 Y117.502 E2.56827
G1 X33.767 Y118.035 E0.01676
G1 X91.622 Y175.890 E2.56827
G1 X91.622 Y176.424 E0.01676
G1 X33.767 Y118.569 E2.56827
G1 X33.767 Y119.103 E0.01676
G1 X91.622 Y176.958 E2.56827
G1 X91.622 Y177.492 E0.01676
G1 X33.767 Y119.637 E2.56827
G1 X33.767 Y120.171 E0.01676
G1 X91.622 Y178.026 E2.56827
G1 X91.622 Y178.559 E0.01676
G1 X33.767 Y120.705 E2.56827
G1 X33.767 Y121.239 E0.01676
G1 X91.622 Y179.093 E2.56827
G1 X91.622 Y179.627 E0.01676
G1 X33.767 Y121.773 E2.56827
G1 X33.767 Y122.306 E0.01676
G1 X91.622 Y180.161 E2.56827
G1 X91.622 Y180.695 E0.01676
G1 X33.767 Y122.840 E2.56827
G1 X33.767 Y123.374 E0.01676
G1 X91.622 Y181.229 E2.56827
G1 X91.622 Y181.763 E0.01676
G1 X33.767 Y123.908 E2.56827
G1 X33.767 Y124.442 E0.01676
G1 X91.622 Y182.296 E2.56827
M73 Q5 S130
M73 P5 R128
G1 X91.622 Y182.830 E0.01676
G1 X33.767 Y124.976 E2.56827
G1 X33.767 Y125.510 E0.01676
G1 X91.622 Y183.364 E2.56827
G1 X91.622 Y183.898 E0.01676
G1 X33.767 Y126.044 E2.56827
G1 X33.767 Y126.577 E0.01676
G1 X91.622 Y184.432 E2.56827
G1 X91.622 Y184.966 E0.01676
G1 X33.767 Y127.111 E2.56827
G1 X33.767 Y127.645 E0.01676
G1 X91.622 Y185.500 E2.56827
G1 X91.622 Y186.034 E0.01676
G1 X33.767 Y128.179 E2.56827
G1 X33.767 Y128.713 E0.01676
G1 X91.622 Y186.567 E2.56827
G1 X91.622 Y187.101 E0.01676
G1 X33.767 Y129.247 E2.56827
G1 X33.767 Y129.781 E0.01676
G1 X91.622 Y187.635 E2.56827
G1 X91.622 Y188.169 E0.01676
G1 X33.767 Y130.315 E2.56827
G1 X33.767 Y130.848 E0.01676
G1 X91.622 Y188.703 E2.56827
G1 X91.622 Y189.237 E0.01676
G1 X33.767 Y131.382 E2.56827
G1 X33.767 Y131.916 E0.01676
G1 X91.622 Y189.771 E2.56827
G1 X91.622 Y190.305 E0.01676
G1 X33.767 Y132.450 E2.56827
M73 Q6 S129
M73 P6 R127
G1 X33.767 Y132.984 E0.01676
G1 X91.622 Y190.838 E2.56827
G1 X91.622 Y191.296 E0.01435
G1 X91.612 Y191.362 E0.00211
G1 X33.767 Y133.518 E2.56782
G1 X33.767 Y134.052 E0.01676
G1 X91.493 Y191.778 E2.56255
G1 X91.461 Y191.844 E0.00231
G1 X91.248 Y192.066 E0.00967
G1 X33.767 Y134.586 E2.55168
G1 X33.767 Y135.119 E0.01676
G1 X90.874 Y192.226 E2.53509
G1 X90.659 Y192.259 E0.00683
G1 X90.373 Y192.259 E0.00898
G1 X33.767 Y135.653 E2.51282
G1 X33.767 Y136.187 E0.01676
G1 X89.839 Y192.259 E2.48912
G1 X89.305 Y192.259 E0.01676
G1 X33.767 Y136.721 E2.46542
G1 X33.767 Y137.255 E0.01676
G1 X88.771 Y192.259 E2.44172
G1 X88.237 Y192.259 E0.01676
G1 X33.767 Y137.789 E2.41802
G1 X33.767 Y138.323 E0.01676
G1 X87.703 Y192.259 E2.39432
G1 X87.170 Y192.259 E0.01676
G1 X33.767 Y138.857 E2.37062
G1 X33.767 Y139.390 E0.01676
G1 X86.636 Y192.259 E2.34693
G1 X86.102 Y192.259 E0.01676
G1 X33.767 Y139.924 E2.32323
G1 X33.767 Y140.458 E0.01676
G1 X85.568 Y192.259 E2.29953
G1 X85.034 Y192.259 E0.01676
G1 X33.767 Y140.992 E2.27583
M73 Q6 S128
M73 P6 R126
G1 X33.767 Y141.526 E0.01676
G1 X84.500 Y192.259 E2.25213
G1 X83.966 Y192.259 E0.01676
