; generated by PrusaSlicer 2.0.0+win64 on 2019-06-12 at 18:10:33

; 

; external perimeters extrusion width = 0.45mm
; perimeters extrusion width = 0.45mm
; infill extrusion width = 0.45mm
; solid infill extrusion width = 0.45mm
; top infill extrusion width = 0.40mm
; support material extrusion width = 0.35mm
; first layer extrusion width = 0.42mm

M73 P0 R125
M73 Q0 S126
M201 X1000 Y1000 Z1000 E5000 ; sets maximum accelerations, mm/sec^2
M203 X200 Y200 Z12 E120 ; sets maximum feedrates, mm/sec
M204 P1250 R1250 T1250 ; sets acceleration (P, T) and retract acceleration (R), mm/sec^2
M205 X8.00 Y8.00 Z0.40 E1.50 ; sets the jerk limits, mm/sec
M205 S0 T0 ; sets the minimum extruding and travel feed rate, mm/sec
M107
M115 U3.7.1 ; tell printer latest fw version
G90 ; use absolute coordinates
M83 ; extruder relative mode
M104 S215 ; set extruder temp
M140 S60 ; set bed temp
M190 S60 ; wait for bed temp
M109 S215 ; wait for extruder temp
G28 W ; home all without mesh bed level
G80 ; mesh bed leveling
G1 Y-3.0 F1000.0 ; go outside print area
G92 E0.0
G1 X60.0 E9.0 F1000.0 ; intro line
M73 Q0 S126
M73 P0 R125
G1 X100.0 E12.5 F1000.0 ; intro line
G92 E0.0
M221 S95
M900 K30 ; Filament gcode
G21 ; set units to millimeters
G90 ; use absolute coordinates
M83 ; use relative distances for extrusion
;BEFORE_LAYER_CHANGE
G92 E0.0
;0.2


G1 E-0.80000 F2100.00000
G1 Z0.600 F10800.000
;AFTER_LAYER_CHANGE
;0.2
G1 X39.839 Y86.160
G1 Z0.200
G1 E0.80000 F2100.00000
M204 S1000
G1 F1200
G1 X39.641 Y85.253 E0.02911
G1 X39.641 Y74.468 E0.33817
G1 X39.827 Y73.620 E0.02721
G1 X41.689 Y70.873 E0.10406
G1 X51.498 Y58.088 E0.50525
G1 X52.168 Y57.404 E0.03000
G1 X52.680 Y57.077 E0.01908
G1 X53.586 Y56.803 E0.02966
G1 X54.078 Y56.744 E0.01555
G1 X104.095 Y56.744 E1.56826
G1 X104.610 Y56.806 E0.01623
G1 X105.541 Y57.094 E0.03059
G1 X105.987 Y57.380 E0.01658
G1 X106.544 Y57.924 E0.02442
G1 X120.402 Y73.065 E0.64357
G1 X120.788 Y73.698 E0.02326
G1 X120.941 Y74.428 E0.02338
G1 X120.941 Y83.013 E0.26916
G1 X120.837 Y83.601 E0.01873
G1 X120.579 Y84.140 E0.01873
G1 X117.960 Y86.702 E0.11487
G1 X106.046 Y97.434 E0.50278
G1 X105.503 Y97.788 E0.02032
G1 X104.598 Y98.061 E0.02963
G1 X104.106 Y98.121 E0.01555
G1 X53.710 Y98.087 E1.58012
G1 X52.766 Y97.825 E0.03073
G1 X52.164 Y97.456 E0.02213
G1 X40.352 Y86.865 E0.49743
G1 X39.874 Y86.209 E0.02544
G1 F8640
G1 X39.641 Y85.253 E-0.22715
G1 X39.641 Y82.946 E-0.53285
G1 E-0.04000 F2100.00000
G1 Z0.800 F10800.000
G1 X41.829 Y85.250
G1 Z0.200
G1 E0.80000 F2100.00000
G1 F1200
G1 X41.829 Y74.504 E0.33693
G1 X42.583 Y74.504 E0.02365
G1 X42.583 Y85.080 E0.33161
G1 X43.338 Y85.080 E0.02365
G1 X43.338 Y74.504 E0.33161
G1 X43.439 Y74.504 E0.00319
G1 X43.439 Y72.186 E0.07267
G1 X44.092 Y72.186 E0.02046
G1 X44.092 Y85.080 E0.40428
G1 X44.846 Y85.080 E0.02365
G1 X44.846 Y72.186 E0.40428
G1 X45.600 Y72.186 E0.02365
G1 X45.600 Y85.080 E0.40428
G1 X45.757 Y85.080 E0.00492
G1 X45.757 Y87.398 E0.07267
G1 X46.354 Y87.398 E0.01872
G1 X46.354 Y69.869 E0.54963
G1 X47.108 Y69.869 E0.02365
G1 X47.108 Y87.398 E0.54963
G1 X47.863 Y87.398 E0.02365
G1 X47.863 Y69.869 E0.54963
G1 X48.617 Y69.869 E0.02365
G1 X48.617 Y87.398 E0.54963
G1 X49.371 Y87.398 E0.02365
G1 X49.371 Y69.869 E0.54963
G1 X50.125 Y69.869 E0.02365
G1 X50.125 Y87.398 E0.54963
G1 X50.879 Y87.398 E0.02365
G1 X50.879 Y69.869 E0.54963
G1 X51.633 Y69.869 E0.02365
G1 X51.633 Y87.398 E0.54963
G1 X52.388 Y87.398 E0.02365
G1 X52.388 Y69.869 E0.54963
G1 X53.142 Y69.869 E0.02365
G1 X53.142 Y87.568 E0.55495
G1 F8640
G1 X53.142 Y84.277 E-0.76000
G1 E-0.04000 F2100.00000
G1 Z0.800 F10800.000
G1 X56.913 Y80.615
G1 Z0.200
G1 E0.80000 F2100.00000
G1 F1200
G1 X56.913 Y74.220 E0.20051
G1 X57.667 Y74.220 E0.02365
G1 X57.667 Y80.445 E0.19519
G1 X58.421 Y80.445 E0.02365
G1 X58.421 Y74.220 E0.19519
G1 X59.175 Y74.220 E0.02365
G1 X59.175 Y80.445 E0.19519
G1 X59.929 Y80.445 E0.02365
G1 X59.929 Y74.220 E0.19519
G1 X60.683 Y74.220 E0.02365
G1 X60.683 Y80.615 E0.20051
G1 F8640
G1 X60.683 Y77.323 E-0.76000
G1 E-0.04000 F2100.00000
G1 Z0.800 F10800.000
G1 X66.717 Y75.979
G1 Z0.200
G1 E0.80000 F2100.00000
G1 F1200
G1 X66.717 Y74.220 E0.05516
G1 X67.471 Y74.220 E0.02365
G1 X67.471 Y75.809 E0.04984
G1 X68.225 Y75.809 E0.02365
G1 X68.225 Y74.220 E0.04984
G1 X68.979 Y74.220 E0.02365
G1 X68.979 Y75.809 E0.04984
G1 X69.733 Y75.809 E0.02365
G1 X69.733 Y65.233 E0.33161
G1 X70.487 Y65.233 E0.02365
G1 X70.487 Y75.809 E0.33161
G1 X71.242 Y75.809 E0.02365
G1 X71.242 Y65.233 E0.33161
G1 X71.996 Y65.233 E0.02365
G1 X71.996 Y75.809 E0.33161
G1 X72.750 Y75.809 E0.02365
G1 X72.750 Y65.233 E0.33161
G1 X73.504 Y65.233 E0.02365
G1 X73.504 Y75.809 E0.33161
G1 X74.258 Y75.809 E0.02365
G1 X74.258 Y65.233 E0.33161
G1 X75.012 Y65.233 E0.02365
G1 X75.012 Y75.809 E0.33161
G1 X75.766 Y75.809 E0.02365
G1 X75.766 Y65.233 E0.33161
G1 X76.521 Y65.233 E0.02365
G1 X76.521 Y75.809 E0.33161
G1 X77.275 Y75.809 E0.02365
G1 X77.275 Y65.233 E0.33161
G1 X78.029 Y65.233 E0.02365
G1 X78.029 Y75.809 E0.33161
G1 X78.783 Y75.809 E0.02365
G1 X78.783 Y65.233 E0.33161
G1 X79.537 Y65.233 E0.02365
G1 X79.537 Y75.809 E0.33161
G1 X80.291 Y75.809 E0.02365
G1 X80.291 Y65.233 E0.33161
G1 X81.046 Y65.233 E0.02365
G1 X81.046 Y75.809 E0.33161
G1 X81.800 Y75.809 E0.02365
G1 X81.800 Y65.233 E0.33161
G1 X82.554 Y65.233 E0.02365
G1 X82.554 Y75.809 E0.33161
G1 X83.308 Y75.809 E0.02365
G1 X83.308 Y65.233 E0.33161
G1 X84.062 Y65.233 E0.02365
G1 X84.062 Y75.809 E0.33161
G1 X84.816 Y75.809 E0.02365
G1 X84.816 Y65.233 E0.33161
G1 X85.571 Y65.233 E0.02365
G1 X85.571 Y75.809 E0.33161
G1 X86.325 Y75.809 E0.02365
G1 X86.325 Y65.233 E0.33161
G1 X87.079 Y65.233 E0.02365
G1 X87.079 Y75.809 E0.33161
G1 X87.833 Y75.809 E0.02365
G1 X87.833 Y65.233 E0.33161
G1 X88.587 Y65.233 E0.02365
G1 X88.587 Y75.809 E0.33161
G1 X89.341 Y75.809 E0.02365
G1 X89.341 Y74.220 E0.04984
G1 X90.096 Y74.220 E0.02365
G1 X90.096 Y75.809 E0.04984
G1 X90.850 Y75.809 E0.02365
G1 X90.850 Y74.220 E0.04984
G1 X91.604 Y74.220 E0.02365
G1 X91.604 Y75.979 E0.05516
G1 F8640
G1 X91.604 Y74.220 E-0.40621
G1 X90.850 Y74.220 E-0.17414
G1 X90.850 Y74.998 E-0.17966
G1 E-0.04000 F2100.00000
G1 Z0.800 F10800.000
G1 X96.883 Y74.050
G1 Z0.200
G1 E0.80000 F2100.00000
G1 F1200
G1 X96.883 Y80.445 E0.20051
G1 X97.637 Y80.445 E0.02365
G1 X97.637 Y74.220 E0.19519
G1 X98.391 Y74.220 E0.02365
G1 X98.391 Y80.445 E0.19519
G1 X99.145 Y80.445 E0.02365
G1 X99.145 Y74.220 E0.19519
G1 X99.900 Y74.220 E0.02365
G1 X99.900 Y80.445 E0.19519
G1 X100.654 Y80.445 E0.02365
G1 X100.654 Y74.220 E0.19519
G1 X101.408 Y74.220 E0.02365
G1 X101.408 Y81.688 E0.23417
G1 F8640
G1 X101.408 Y78.397 E-0.76000
G1 E-0.04000 F2100.00000
G1 Z0.800 F10800.000
G1 X105.179 Y69.699
G1 Z0.200
G1 E0.80000 F2100.00000
G1 F1200
G1 X105.179 Y87.398 E0.55495
G1 X105.933 Y87.398 E0.02365
G1 X105.933 Y69.869 E0.54963
G1 X106.687 Y69.869 E0.02365
G1 X106.687 Y87.398 E0.54963
G1 X107.441 Y87.398 E0.02365
G1 X107.441 Y69.869 E0.54963
G1 X108.195 Y69.869 E0.02365
G1 X108.195 Y87.398 E0.54963
G1 X108.949 Y87.398 E0.02365
G1 X108.949 Y69.869 E0.54963
G1 X109.704 Y69.869 E0.02365
G1 X109.704 Y87.398 E0.54963
G1 X110.458 Y87.398 E0.02365
G1 X110.458 Y69.869 E0.54963
G1 X111.212 Y69.869 E0.02365
G1 X111.212 Y87.398 E0.54963
G1 X111.961 Y87.398 E0.02348
G1 X111.966 Y74.504 E0.40428
G1 X112.720 Y74.504 E0.02365
G1 X112.720 Y85.080 E0.33161
M73 Q0 S125
G1 X113.474 Y85.080 E0.02365
M73 P0 R124
G1 X113.474 Y74.504 E0.33161
G1 X114.229 Y74.504 E0.02365
G1 X114.229 Y85.080 E0.33161
G1 X114.983 Y85.080 E0.02365
G1 X114.983 Y74.504 E0.33161
G1 X115.737 Y74.504 E0.02365
G1 X115.737 Y85.080 E0.33161
G1 X116.491 Y85.080 E0.02365
G1 X116.491 Y74.504 E0.33161
G1 X117.245 Y74.504 E0.02365
G1 X117.245 Y82.763 E0.25894
G1 X117.999 Y82.763 E0.02365
G1 X117.999 Y74.504 E0.25894
G1 X118.754 Y74.504 E0.02365
G1 X118.754 Y82.932 E0.26426
G1 F8640
G1 X118.754 Y79.641 E-0.76000
G1 E-0.04000 F2100.00000
G1 Z0.800 F10800.000
G1 X54.628 Y94.396
G1 Z0.200
G1 E0.80000 F2100.00000
G1 F1200
G1 X54.431 Y95.128 E0.02376
G1 X54.288 Y95.272 E0.00637
G1 X54.092 Y95.324 E0.00637
G1 X53.896 Y95.272 E0.00637
G1 X53.752 Y95.128 E0.00637
G1 X53.700 Y94.932 E0.00637
G1 X53.752 Y94.736 E0.00637
G1 X53.896 Y94.592 E0.00637
G1 X54.570 Y94.412 E0.02188
G1 F8640
G1 X54.431 Y95.128 E-0.16846
G1 X54.288 Y95.272 E-0.04688
G1 X54.092 Y95.324 E-0.04688
G1 X53.896 Y95.272 E-0.04688
G1 X53.752 Y95.128 E-0.04688
G1 X53.700 Y94.932 E-0.04688
G1 X53.752 Y94.736 E-0.04688
G1 X53.896 Y94.592 E-0.04688
G1 X54.570 Y94.412 E-0.16110
G1 E-0.14229 F2100.00000
G1 Z0.800 F10800.000
G1 X54.628 Y60.468
G1 Z0.200
G1 E0.80000 F2100.00000
G1 F1200
G1 X53.896 Y60.272 E0.02376
G1 X53.752 Y60.128 E0.00637
G1 X53.700 Y59.932 E0.00637
G1 X53.752 Y59.736 E0.00637
G1 X53.896 Y59.592 E0.00637
G1 X54.092 Y59.540 E0.00637
G1 X54.288 Y59.592 E0.00637
G1 X54.431 Y59.736 E0.00637
G1 X54.612 Y60.410 E0.02188
G1 F8640
G1 X53.896 Y60.272 E-0.16845
G1 X53.752 Y60.128 E-0.04688
G1 X53.700 Y59.932 E-0.04688
G1 X53.752 Y59.736 E-0.04688
G1 X53.896 Y59.592 E-0.04688
G1 X54.092 Y59.540 E-0.04688
G1 X54.288 Y59.592 E-0.04688
G1 X54.431 Y59.736 E-0.04688
G1 X54.612 Y60.410 E-0.16110
G1 E-0.14229 F2100.00000
G1 Z0.800 F10800.000
G1 X103.554 Y60.475
G1 Z0.200
G1 E0.80000 F2100.00000
G1 F1200
G1 X103.752 Y59.736 E0.02399
G1 X103.896 Y59.592 E0.00637
G1 X104.092 Y59.540 E0.00637
G1 X104.276 Y59.589 E0.00598
G1 X104.433 Y59.741 E0.00684
G1 X104.484 Y59.932 E0.00621
G1 X104.431 Y60.128 E0.00637
G1 X104.297 Y60.263 E0.00598
G1 X103.612 Y60.459 E0.02233
G1 F8640
G1 X103.752 Y59.736 E-0.16996
G1 X103.896 Y59.592 E-0.04688
G1 X104.092 Y59.540 E-0.04688
G1 X104.276 Y59.589 E-0.04407
G1 X104.433 Y59.741 E-0.05034
G1 X104.484 Y59.932 E-0.04570
G1 X104.431 Y60.128 E-0.04688
G1 X104.297 Y60.263 E-0.04407
G1 X103.612 Y60.459 E-0.16441
G1 E-0.14081 F2100.00000
G1 Z0.800 F10800.000
G1 X102.679 Y85.644
G1 Z0.200
G1 E0.80000 F2100.00000
G1 F1200
G1 X102.679 Y93.519 E0.24692
G1 X55.505 Y93.519 E1.47911
G1 X55.505 Y85.644 E0.24692
G1 X102.619 Y85.644 E1.47723
G1 X102.302 Y86.021 F10800.000
G1 F1200
G1 X102.302 Y93.142 E0.22327
G1 X55.882 Y93.142 E1.45547
G1 X55.882 Y86.021 E0.22327
G1 X102.242 Y86.021 E1.45359
G1 X102.701 Y86.001 F10800.000
G1 F8640
G1 X102.270 Y89.312 E-0.76000
G1 E-0.04000 F2100.00000
G1 Z0.800 F10800.000
G1 X68.505 Y61.345
G1 Z0.200
G1 E0.80000 F2100.00000
G1 F1200
G1 X89.679 Y61.345 E0.66390
G1 X89.679 Y73.219 E0.37230
G1 X102.679 Y73.219 E0.40761
G1 X102.679 Y82.519 E0.29160
G1 X55.505 Y82.519 E1.47911
G1 X55.505 Y73.219 E0.29160
G1 X68.505 Y73.219 E0.40761
G1 X68.505 Y61.405 E0.37042
G1 X68.882 Y61.722 F10800.000
G1 F1200
G1 X89.302 Y61.722 E0.64025
G1 X89.302 Y73.596 E0.37230
G1 X102.302 Y73.596 E0.40761
G1 X102.302 Y82.142 E0.26795
G1 X55.882 Y82.142 E1.45547
G1 X55.882 Y73.596 E0.26795
G1 X68.882 Y73.596 E0.40761
G1 X68.882 Y61.782 E0.37042
G1 X68.991 Y61.337 F10800.000
G1 F8640
G1 X72.173 Y61.772 E-0.76000
G1 E-0.04000 F2100.00000
G1 Z0.800 F10800.000
G1 X54.679 Y60.519
G1 Z0.200
G1 E0.80000 F2100.00000
G1 F1200
G1 X103.505 Y60.519 E1.53090
G1 X103.505 Y94.345 E1.06059
G1 X54.679 Y94.345 E1.53090
G1 X54.679 Y60.579 E1.05870
G1 F8640
G1 X57.970 Y60.575 E-0.76000
G1 E-0.04000 F2100.00000
G1 Z0.800 F10800.000
G1 X103.556 Y94.396
G1 Z0.200
G1 E0.80000 F2100.00000
G1 F1200
G1 X104.288 Y94.592 E0.02376
G1 X104.431 Y94.736 E0.00637
G1 X104.484 Y94.932 E0.00637
G1 X104.431 Y95.128 E0.00637
G1 X104.288 Y95.272 E0.00637
G1 X104.092 Y95.324 E0.00637
G1 X103.896 Y95.272 E0.00637
G1 X103.752 Y95.128 E0.00637
G1 X103.572 Y94.454 E0.02188
G1 X103.253 Y94.722 F10800.000
G1 F1200
G1 X54.931 Y94.722 E1.51511
G1 X54.770 Y95.323 E0.01952
G1 X54.483 Y95.610 E0.01270
G1 X54.092 Y95.715 E0.01270
G1 X53.701 Y95.610 E0.01270
G1 X53.414 Y95.323 E0.01270
G1 X53.309 Y94.932 E0.01270
G1 X53.414 Y94.541 E0.01270
G1 X53.701 Y94.254 E0.01270
G1 X54.302 Y94.093 E0.01952
G1 X54.302 Y60.771 E1.04480
G1 X53.701 Y60.610 E0.01952
G1 X53.414 Y60.323 E0.01270
G1 X53.309 Y59.932 E0.01270
G1 X53.414 Y59.541 E0.01270
G1 X53.701 Y59.254 E0.01270
G1 X54.092 Y59.150 E0.01270
G1 X54.483 Y59.254 E0.01270
G1 X54.770 Y59.541 E0.01270
G1 X54.931 Y60.142 E0.01952
G1 X103.253 Y60.142 E1.51511
G1 X103.414 Y59.541 E0.01952
G1 X103.701 Y59.254 E0.01270
G1 X104.092 Y59.150 E0.01270
G1 X104.468 Y59.250 E0.01222
G1 X104.770 Y59.543 E0.01317
G1 X104.874 Y59.932 E0.01264
G1 X104.770 Y60.323 E0.01270
G1 X104.494 Y60.599 E0.01222
G1 X103.882 Y60.774 E0.01996
G1 X103.882 Y94.093 E1.04471
G1 X104.483 Y94.254 E0.01952
G1 X104.770 Y94.541 E0.01270
G1 X104.874 Y94.932 E0.01270
G1 X104.770 Y95.323 E0.01270
G1 X104.483 Y95.610 E0.01270
G1 X104.092 Y95.715 E0.01270
G1 X103.701 Y95.610 E0.01270
G1 X103.414 Y95.323 E0.01270
G1 X103.268 Y94.780 E0.01764
G1 X103.191 Y94.327 F10800.000
G1 X103.829 Y94.586
G1 F1200
G1 X104.321 Y95.079 E0.02620
G1 F8640
G1 X103.829 Y94.586 E-0.16076
G1 E-0.63924 F2100.00000
G1 Z0.800 F10800.000
G1 X103.392 Y86.506
G1 Z0.200
G1 E0.80000 F2100.00000
G1 F1200
G1 X102.962 Y86.076 E0.01910
G1 X102.962 Y86.610 E0.01678
G1 X103.222 Y86.870 E0.01156
G1 X103.222 Y87.405 E0.01678
G1 X102.962 Y87.144 E0.01156
G1 X102.962 Y87.679 E0.01678
G1 X103.222 Y87.939 E0.01156
G1 X103.222 Y88.473 E0.01678
G1 X102.962 Y88.213 E0.01156
G1 X102.962 Y88.747 E0.01678
G1 X103.222 Y89.007 E0.01156
G1 X103.222 Y89.542 E0.01678
G1 X102.962 Y89.281 E0.01156
G1 X102.962 Y89.816 E0.01678
G1 X103.222 Y90.076 E0.01156
G1 X103.222 Y90.610 E0.01678
G1 X102.962 Y90.350 E0.01156
G1 X102.962 Y90.884 E0.01678
G1 X103.222 Y91.144 E0.01156
G1 X103.222 Y91.679 E0.01678
G1 X102.962 Y91.418 E0.01156
G1 X102.962 Y91.953 E0.01678
G1 X103.222 Y92.213 E0.01156
G1 X103.222 Y92.747 E0.01678
G1 X102.962 Y92.487 E0.01156
G1 X102.962 Y93.021 E0.01678
G1 X103.222 Y93.281 E0.01156
G1 X103.222 Y93.816 E0.01678
G1 X102.962 Y93.555 E0.01156
G1 X102.962 Y93.802 E0.00775
G1 X102.674 Y93.802 E0.00903
G1 X102.934 Y94.062 E0.01156
G1 X102.400 Y94.062 E0.01678
G1 X102.140 Y93.802 E0.01156
G1 X101.606 Y93.802 E0.01678
G1 X101.866 Y94.062 E0.01156
G1 X101.332 Y94.062 E0.01678
G1 X101.071 Y93.802 E0.01156
G1 X100.537 Y93.802 E0.01678
G1 X100.797 Y94.062 E0.01156
G1 X100.263 Y94.062 E0.01678
G1 X100.003 Y93.802 E0.01156
G1 X99.469 Y93.802 E0.01678
G1 X99.729 Y94.062 E0.01156
G1 X99.195 Y94.062 E0.01678
G1 X98.934 Y93.802 E0.01156
G1 X98.400 Y93.802 E0.01678
G1 X98.660 Y94.062 E0.01156
G1 X98.126 Y94.062 E0.01678
G1 X97.866 Y93.802 E0.01156
G1 X97.332 Y93.802 E0.01678
G1 X97.592 Y94.062 E0.01156
G1 X97.058 Y94.062 E0.01678
G1 X96.797 Y93.802 E0.01156
G1 X96.263 Y93.802 E0.01678
G1 X96.523 Y94.062 E0.01156
G1 X95.989 Y94.062 E0.01678
G1 X95.729 Y93.802 E0.01156
G1 X95.195 Y93.802 E0.01678
G1 X95.455 Y94.062 E0.01156
G1 X94.921 Y94.062 E0.01678
G1 X94.660 Y93.802 E0.01156
G1 X94.126 Y93.802 E0.01678
G1 X94.386 Y94.062 E0.01156
G1 X93.852 Y94.062 E0.01678
G1 X93.592 Y93.802 E0.01156
G1 X93.058 Y93.802 E0.01678
G1 X93.318 Y94.062 E0.01156
G1 X92.784 Y94.062 E0.01678
G1 X92.523 Y93.802 E0.01156
G1 X91.989 Y93.802 E0.01678
G1 X92.249 Y94.062 E0.01156
G1 X91.715 Y94.062 E0.01678
G1 X91.455 Y93.802 E0.01156
G1 X90.921 Y93.802 E0.01678
G1 X91.181 Y94.062 E0.01156
G1 X90.647 Y94.062 E0.01678
G1 X90.386 Y93.802 E0.01156
G1 X89.852 Y93.802 E0.01678
G1 X90.112 Y94.062 E0.01156
G1 X89.578 Y94.062 E0.01678
G1 X89.318 Y93.802 E0.01156
G1 X88.784 Y93.802 E0.01678
G1 X89.044 Y94.062 E0.01156
G1 X88.510 Y94.062 E0.01678
G1 X88.249 Y93.802 E0.01156
G1 X87.715 Y93.802 E0.01678
G1 X87.975 Y94.062 E0.01156
G1 X87.441 Y94.062 E0.01678
G1 X87.181 Y93.802 E0.01156
G1 X86.647 Y93.802 E0.01678
G1 X86.907 Y94.062 E0.01156
G1 X86.373 Y94.062 E0.01678
G1 X86.112 Y93.802 E0.01156
G1 X85.578 Y93.802 E0.01678
G1 X85.838 Y94.062 E0.01156
G1 X85.304 Y94.062 E0.01678
G1 X85.044 Y93.802 E0.01156
G1 X84.510 Y93.802 E0.01678
G1 X84.770 Y94.062 E0.01156
G1 X84.236 Y94.062 E0.01678
G1 X83.975 Y93.802 E0.01156
G1 X83.441 Y93.802 E0.01678
G1 X83.701 Y94.062 E0.01156
G1 X83.167 Y94.062 E0.01678
G1 X82.907 Y93.802 E0.01156
G1 X82.373 Y93.802 E0.01678
G1 X82.633 Y94.062 E0.01156
G1 X82.099 Y94.062 E0.01678
