; generated by PrusaSlicer 2.0.0+win64 on 2019-06-03 at 12:38:49

; 

; external perimeters extrusion width = 0.45mm
; perimeters extrusion width = 0.45mm
; infill extrusion width = 0.45mm
; solid infill extrusion width = 0.45mm
; top infill extrusion width = 0.40mm
; first layer extrusion width = 0.42mm

M73 P0 R132
M73 Q0 S133
M201 X1000 Y1000 Z1000 E5000 ; sets maximum accelerations, mm/sec^2
M203 X200 Y200 Z12 E120 ; sets maximum feedrates, mm/sec
M204 P1250 R1250 T1250 ; sets acceleration (P, T) and retract acceleration (R), mm/sec^2
M205 X8.00 Y8.00 Z0.40 E1.50 ; sets the jerk limits, mm/sec
M205 S0 T0 ; sets the minimum extruding and travel feed rate, mm/sec
M107
M115 U3.7.1 ; tell printer latest fw version
G90 ; use absolute coordinates
M83 ; extruder relative mode
M104 S215 ; set extruder temp
M140 S60 ; set bed temp
M190 S60 ; wait for bed temp
M109 S215 ; wait for extruder temp
G28 W ; home all without mesh bed level
G80 ; mesh bed leveling
G1 Y-3.0 F1000.0 ; go outside print area
G92 E0.0
G1 X60.0 E9.0 F1000.0 ; intro line
M73 Q0 S133
M73 P0 R131
G1 X100.0 E12.5 F1000.0 ; intro line
G92 E0.0
M221 S95
M900 K30 ; Filament gcode
G21 ; set units to millimeters
G90 ; use absolute coordinates
M83 ; use relative distances for extrusion
;BEFORE_LAYER_CHANGE
G92 E0.0
;0.2


G1 E-0.80000 F2100.00000
G1 Z0.600 F10800.000
;AFTER_LAYER_CHANGE
;0.2
G1 X74.432 Y119.101
G1 Z0.200
G1 E0.80000 F2100.00000
M204 S1000
G1 F1200
G1 X74.220 Y118.038 E0.04078
G1 X74.253 Y81.589 E1.37140
G1 X74.387 Y81.023 E0.02187
G1 X74.645 Y80.467 E0.02305
G1 X75.014 Y79.968 E0.02335
G1 X75.434 Y79.594 E0.02117
G1 X128.835 Y41.557 E2.46683
G1 X129.916 Y40.886 E0.04786
G1 X131.424 Y40.263 E0.06140
G1 X132.642 Y39.974 E0.04707
G1 X133.911 Y39.864 E0.04795
G1 X148.539 Y39.810 E0.55038
G1 X149.933 Y39.918 E0.05262
G1 X151.422 Y40.288 E0.05771
G1 X152.717 Y40.849 E0.05309
G1 X153.752 Y41.486 E0.04575
G1 X154.708 Y42.286 E0.04690
G1 X155.715 Y43.428 E0.05726
G1 X156.466 Y44.639 E0.05365
G1 X157.008 Y45.941 E0.05304
G1 X157.353 Y47.445 E0.05807
G1 X157.447 Y48.664 E0.04602
G1 X157.784 Y146.668 E3.68741
G1 X157.687 Y148.004 E0.05043
G1 X157.363 Y149.400 E0.05390
G1 X156.840 Y150.683 E0.05214
G1 X156.121 Y151.874 E0.05235
G1 X155.322 Y152.831 E0.04689
G1 X154.020 Y153.955 E0.06472
G1 X152.938 Y154.614 E0.04766
G1 X151.612 Y155.160 E0.05399
G1 X150.314 Y155.473 E0.05022
G1 X148.972 Y155.586 E0.05067
G1 X134.419 Y155.636 E0.54756
G1 X133.094 Y155.540 E0.05000
G1 X131.547 Y155.163 E0.05990
G1 X130.389 Y154.682 E0.04717
G1 X129.339 Y154.052 E0.04610
G1 X75.657 Y120.560 E2.38064
G1 X74.926 Y119.928 E0.03638
G1 X74.462 Y119.152 E0.03398
G1 F8640
G1 X74.220 Y118.038 E-0.26335
G1 X74.222 Y115.887 E-0.49665
G1 E-0.04000 F2100.00000
G1 Z0.800 F10800.000
G1 X105.503 Y124.238
G1 Z0.200
G1 E0.80000 F2100.00000
G1 F1200
G1 X105.700 Y123.499 E0.02878
G1 X106.024 Y122.805 E0.02880
G1 X106.462 Y122.179 E0.02878
G1 X107.003 Y121.638 E0.02878
G1 X107.630 Y121.199 E0.02880
G1 X108.326 Y120.874 E0.02886
G1 X109.098 Y120.674 E0.03003
G1 X109.825 Y120.611 E0.02745
G1 X110.587 Y120.677 E0.02879
G1 X111.327 Y120.875 E0.02880
G1 X112.020 Y121.199 E0.02877
G1 X112.647 Y121.638 E0.02880
G1 X113.188 Y122.179 E0.02878
G1 X113.626 Y122.805 E0.02878
G1 X113.950 Y123.499 E0.02880
G1 X114.147 Y124.238 E0.02878
G1 X114.214 Y125.000 E0.02879
G1 X114.147 Y125.762 E0.02879
G1 X113.950 Y126.501 E0.02878
G1 X113.626 Y127.195 E0.02880
G1 X113.188 Y127.821 E0.02878
G1 X112.647 Y128.362 E0.02878
G1 X112.020 Y128.801 E0.02880
G1 X111.327 Y129.125 E0.02877
G1 X110.587 Y129.323 E0.02880
G1 X109.825 Y129.389 E0.02879
G1 X109.063 Y129.323 E0.02879
G1 X108.323 Y129.125 E0.02880
G1 X107.630 Y128.801 E0.02877
G1 X107.003 Y128.362 E0.02880
G1 X106.462 Y127.821 E0.02878
G1 X106.024 Y127.195 E0.02878
G1 X105.700 Y126.501 E0.02880
G1 X105.503 Y125.762 E0.02878
G1 X105.436 Y125.000 E0.02879
G1 X105.497 Y124.298 E0.02653
G1 X105.873 Y124.331 F10800.000
G1 F1200
G1 X106.056 Y123.628 E0.02731
G1 X106.351 Y122.995 E0.02631
G1 X106.752 Y122.422 E0.02630
G1 X107.246 Y121.928 E0.02630
G1 X107.820 Y121.527 E0.02632
G1 X108.454 Y121.231 E0.02632
G1 X109.162 Y121.047 E0.02754
G1 X109.825 Y120.989 E0.02503
G1 X110.522 Y121.050 E0.02631
G1 X111.197 Y121.231 E0.02631
G1 X111.830 Y121.527 E0.02629
G1 X112.404 Y121.928 E0.02632
G1 X112.898 Y122.422 E0.02630
G1 X113.299 Y122.995 E0.02630
G1 X113.594 Y123.628 E0.02631
G1 X113.775 Y124.304 E0.02630
G1 X113.836 Y125.000 E0.02631
G1 X113.775 Y125.696 E0.02631
G1 X113.594 Y126.372 E0.02630
G1 X113.299 Y127.005 E0.02631
G1 X112.898 Y127.578 E0.02630
G1 X112.404 Y128.072 E0.02630
G1 X111.830 Y128.473 E0.02632
G1 X111.197 Y128.769 E0.02629
G1 X110.522 Y128.950 E0.02631
G1 X109.825 Y129.011 E0.02631
G1 X109.128 Y128.950 E0.02631
G1 X108.453 Y128.769 E0.02631
G1 X107.820 Y128.473 E0.02629
G1 X107.246 Y128.072 E0.02632
G1 X106.752 Y127.578 E0.02630
G1 X106.351 Y127.005 E0.02630
G1 X106.056 Y126.372 E0.02631
G1 X105.875 Y125.696 E0.02630
G1 X105.814 Y125.000 E0.02631
G1 X105.868 Y124.390 E0.02303
G1 X105.565 Y124.075 F10800.000
G1 F8640
G1 X106.056 Y123.628 E-0.18126
G1 X106.351 Y122.995 E-0.16145
G1 X106.752 Y122.422 E-0.16143
G1 X107.246 Y121.928 E-0.16138
G1 X107.582 Y121.693 E-0.09448
G1 E-0.04000 F2100.00000
G1 Z0.800 F10800.000
G1 X109.802 Y79.387
G1 Z0.200
G1 E0.80000 F2100.00000
G1 F1200
G1 X109.063 Y79.323 E0.02793
G1 X108.323 Y79.125 E0.02880
G1 X107.630 Y78.801 E0.02877
G1 X107.003 Y78.362 E0.02880
G1 X106.462 Y77.821 E0.02878
G1 X106.024 Y77.195 E0.02878
G1 X105.700 Y76.501 E0.02880
G1 X105.503 Y75.762 E0.02878
G1 X105.436 Y75.000 E0.02879
G1 X105.503 Y74.238 E0.02879
G1 X105.700 Y73.499 E0.02878
G1 X106.024 Y72.805 E0.02880
G1 X106.462 Y72.179 E0.02878
G1 X107.003 Y71.638 E0.02878
G1 X107.630 Y71.199 E0.02880
G1 X108.326 Y70.874 E0.02886
G1 X109.098 Y70.674 E0.03003
G1 X109.825 Y70.611 E0.02745
G1 X110.587 Y70.677 E0.02879
G1 X111.327 Y70.875 E0.02880
G1 X112.020 Y71.199 E0.02877
G1 X112.647 Y71.638 E0.02880
G1 X113.188 Y72.179 E0.02878
G1 X113.626 Y72.805 E0.02878
G1 X113.950 Y73.499 E0.02880
G1 X114.147 Y74.238 E0.02878
G1 X114.214 Y75.000 E0.02879
G1 X114.147 Y75.762 E0.02879
G1 X113.950 Y76.501 E0.02878
G1 X113.626 Y77.195 E0.02880
G1 X113.188 Y77.821 E0.02878
G1 X112.647 Y78.362 E0.02878
G1 X112.020 Y78.801 E0.02880
G1 X111.327 Y79.125 E0.02877
G1 X110.587 Y79.323 E0.02880
G1 X109.862 Y79.386 E0.02740
G1 X109.829 Y79.010 F10800.000
G1 F1200
G1 X109.128 Y78.950 E0.02646
G1 X108.453 Y78.769 E0.02631
G1 X107.820 Y78.473 E0.02629
G1 X107.246 Y78.072 E0.02632
G1 X106.752 Y77.578 E0.02630
G1 X106.351 Y77.005 E0.02630
G1 X106.056 Y76.372 E0.02631
G1 X105.875 Y75.696 E0.02630
G1 X105.814 Y75.000 E0.02631
G1 X105.875 Y74.304 E0.02631
G1 X106.056 Y73.628 E0.02630
G1 X106.351 Y72.995 E0.02631
G1 X106.752 Y72.422 E0.02630
G1 X107.246 Y71.928 E0.02630
G1 X107.820 Y71.527 E0.02632
G1 X108.454 Y71.231 E0.02632
G1 X109.162 Y71.047 E0.02754
G1 X109.825 Y70.989 E0.02503
G1 X110.522 Y71.050 E0.02631
G1 X111.197 Y71.231 E0.02631
G1 X111.830 Y71.527 E0.02629
G1 X112.404 Y71.928 E0.02632
G1 X112.898 Y72.422 E0.02630
G1 X113.299 Y72.995 E0.02630
G1 X113.594 Y73.628 E0.02631
G1 X113.775 Y74.304 E0.02630
G1 X113.836 Y75.000 E0.02631
G1 X113.775 Y75.696 E0.02631
G1 X113.594 Y76.372 E0.02630
G1 X113.299 Y77.005 E0.02631
G1 X112.898 Y77.578 E0.02630
G1 X112.404 Y78.072 E0.02630
G1 X111.830 Y78.473 E0.02632
G1 X111.197 Y78.769 E0.02629
G1 X110.522 Y78.950 E0.02631
G1 X109.889 Y79.005 E0.02390
G1 X109.629 Y79.357 F10800.000
G1 F8640
G1 X109.128 Y78.950 E-0.17603
G1 X108.453 Y78.769 E-0.16148
G1 X107.820 Y78.473 E-0.16135
G1 X107.246 Y78.072 E-0.16151
G1 X106.942 Y77.767 E-0.09962
G1 E-0.04000 F2100.00000
G1 Z0.800 F10800.000
G1 X96.462 Y117.843
G1 Z0.200
G1 E0.80000 F2100.00000
G1 F1200
G1 X77.382 Y117.843 E0.71789
G1 X77.388 Y112.133 E0.21484
G1 X90.199 Y116.827 E0.51335
G1 X90.543 Y116.908 E0.01331
G1 X90.919 Y116.903 E0.01414
G1 X91.180 Y116.848 E0.01006
G1 X91.526 Y116.700 E0.01414
G1 X91.836 Y116.464 E0.01466
G1 X92.055 Y116.191 E0.01317
G1 X92.243 Y115.805 E0.01616
G1 X92.309 Y115.376 E0.01633
G1 X92.309 Y84.690 E1.15456
G1 X92.265 Y84.342 E0.01319
G1 X92.129 Y83.993 E0.01409
G1 X91.985 Y83.767 E0.01008
G1 X91.722 Y83.498 E0.01415
G1 X91.392 Y83.293 E0.01465
G1 X91.020 Y83.173 E0.01469
G1 X90.645 Y83.149 E0.01414
G1 X90.374 Y83.184 E0.01030
G1 X77.388 Y87.929 E0.52020
G1 X77.382 Y82.157 E0.21718
G1 X96.462 Y82.157 E0.71789
G1 X96.462 Y70.587 E0.43532
G1 X101.626 Y70.587 E0.19431
G1 X102.047 Y70.551 E0.01587
G1 X102.479 Y70.436 E0.01684
G1 X102.885 Y70.248 E0.01683
G1 X103.254 Y69.993 E0.01687
G1 X104.582 Y68.681 E0.07026
G1 X105.749 Y67.872 E0.05343
G1 X107.038 Y67.277 E0.05341
G1 X108.410 Y66.912 E0.05343
G1 X109.825 Y66.789 E0.05342
G1 X111.166 Y66.906 E0.05065
G1 X112.614 Y67.278 E0.05625
G1 X113.901 Y67.872 E0.05332
G1 X115.068 Y68.681 E0.05343
G1 X116.396 Y69.993 E0.07026
G1 X116.765 Y70.248 E0.01687
G1 X117.171 Y70.436 E0.01683
G1 X117.603 Y70.551 E0.01684
G1 X118.024 Y70.587 E0.01587
G1 X123.188 Y70.587 E0.19431
G1 X123.188 Y129.413 E2.21333
G1 X118.024 Y129.413 E0.19431
G1 X117.603 Y129.449 E0.01587
G1 X117.171 Y129.564 E0.01684
G1 X116.765 Y129.752 E0.01683
G1 X116.396 Y130.007 E0.01687
G1 X115.068 Y131.319 E0.07026
G1 X113.901 Y132.128 E0.05343
G1 X112.612 Y132.723 E0.05341
G1 X111.239 Y133.088 E0.05343
G1 X109.825 Y133.211 E0.05342
G1 X108.410 Y133.088 E0.05342
G1 X107.038 Y132.723 E0.05343
G1 X105.749 Y132.128 E0.05341
G1 X104.582 Y131.319 E0.05343
G1 X103.254 Y130.007 E0.07026
G1 X102.885 Y129.752 E0.01687
G1 X102.479 Y129.564 E0.01683
G1 X102.047 Y129.449 E0.01684
G1 X101.626 Y129.413 E0.01587
G1 X96.462 Y129.413 E0.19431
G1 X96.462 Y117.903 E0.43306
G1 X96.085 Y118.220 F10800.000
G1 F1200
G1 X77.251 Y118.220 E0.70864
G1 X77.127 Y118.189 E0.00481
G1 X77.030 Y118.088 E0.00526
G1 X77.005 Y117.977 E0.00431
G1 X77.011 Y111.593 E0.24016
G1 X90.307 Y116.465 E0.53278
G1 X90.585 Y116.530 E0.01073
G1 X90.878 Y116.527 E0.01102
G1 X91.066 Y116.487 E0.00724
G1 X91.334 Y116.372 E0.01099
G1 X91.571 Y116.192 E0.01117
G1 X91.734 Y115.988 E0.00984
G1 X91.879 Y115.691 E0.01244
G1 X91.932 Y115.347 E0.01309
G1 X91.932 Y84.714 E1.15257
G1 X91.896 Y84.436 E0.01056
G1 X91.791 Y84.165 E0.01094
G1 X91.688 Y84.003 E0.00722
G1 X91.484 Y83.794 E0.01097
G1 X91.232 Y83.637 E0.01117
G1 X90.949 Y83.546 E0.01119
G1 X90.657 Y83.527 E0.01101
G1 X90.463 Y83.552 E0.00734
G1 X77.011 Y88.468 E0.53889
G1 X77.005 Y82.023 E0.24249
G1 X77.030 Y81.912 E0.00431
G1 X77.127 Y81.811 E0.00526
G1 X77.251 Y81.780 E0.00481
G1 X96.085 Y81.780 E0.70864
G1 X96.085 Y70.210 E0.43532
G1 X101.610 Y70.210 E0.20788
G1 X101.981 Y70.178 E0.01402
G1 X102.351 Y70.080 E0.01437
G1 X102.697 Y69.919 E0.01438
G1 X103.013 Y69.702 E0.01441
G1 X104.341 Y68.389 E0.07025
G1 X105.562 Y67.543 E0.05589
G1 X106.910 Y66.921 E0.05587
G1 X108.345 Y66.539 E0.05589
G1 X109.825 Y66.411 E0.05588
G1 X111.230 Y66.533 E0.05305
G1 X112.741 Y66.921 E0.05872
G1 X114.088 Y67.543 E0.05584
G1 X115.309 Y68.389 E0.05589
G1 X116.637 Y69.702 E0.07025
G1 X116.953 Y69.919 E0.01441
G1 X117.299 Y70.080 E0.01438
G1 X117.669 Y70.178 E0.01437
G1 X118.040 Y70.210 E0.01402
G1 X123.565 Y70.210 E0.20788
G1 X123.565 Y129.790 E2.24171
G1 X118.040 Y129.790 E0.20788
G1 X117.669 Y129.822 E0.01402
G1 X117.299 Y129.920 E0.01437
G1 X116.953 Y130.081 E0.01438
G1 X116.637 Y130.298 E0.01441
G1 X115.309 Y131.611 E0.07025
G1 X114.088 Y132.457 E0.05589
G1 X112.740 Y133.079 E0.05587
G1 X111.305 Y133.461 E0.05589
G1 X109.825 Y133.589 E0.05588
G1 X108.345 Y133.461 E0.05588
G1 X106.910 Y133.079 E0.05589
G1 X105.562 Y132.457 E0.05587
G1 X104.341 Y131.611 E0.05589
G1 X103.013 Y130.298 E0.07025
G1 X102.697 Y130.081 E0.01441
G1 X102.351 Y129.920 E0.01438
G1 X101.981 Y129.822 E0.01437
G1 X101.610 Y129.790 E0.01402
G1 X96.085 Y129.790 E0.20788
G1 X96.085 Y118.280 E0.43306
G1 X96.026 Y117.824 F10800.000
G1 X96.477 Y117.730
G1 F1200
G1 X92.592 Y113.845 E0.20768
G1 X92.592 Y114.381 E0.02025
G1 X95.771 Y117.560 E0.16997
G1 X95.235 Y117.560 E0.02025
G1 X92.592 Y114.916 E0.14133
G1 X92.584 Y115.445 E0.01998
G1 X94.700 Y117.560 E0.11308
G1 X94.164 Y117.560 E0.02025
G1 X92.509 Y115.905 E0.08848
G1 X92.333 Y116.265 E0.01514
G1 X93.628 Y117.560 E0.06924
G1 X93.092 Y117.560 E0.02025
G1 X92.108 Y116.576 E0.05260
G1 X92.035 Y116.668 E0.00445
G1 X91.824 Y116.828 E0.00999
G1 X92.557 Y117.560 E0.03914
G1 X92.021 Y117.560 E0.02025
G1 X91.486 Y117.025 E0.02862
G1 X91.266 Y117.119 E0.00903
G1 X91.083 Y117.158 E0.00708
G1 X91.485 Y117.560 E0.02151
G1 X90.949 Y117.560 E0.02025
G1 X90.579 Y117.190 E0.01980
G1 X90.512 Y117.191 E0.00254
G1 X90.117 Y117.098 E0.01532
G1 X89.856 Y117.002 E0.01053
G1 X90.414 Y117.560 E0.02983
G1 X89.878 Y117.560 E0.02025
G1 X89.010 Y116.692 E0.04639
G1 X88.165 Y116.383 E0.03404
G1 X89.342 Y117.560 E0.06295
G1 X88.806 Y117.560 E0.02025
G1 X87.319 Y116.073 E0.07951
G1 X86.474 Y115.763 E0.03404
G1 X88.271 Y117.560 E0.09607
G1 X87.735 Y117.560 E0.02025
G1 X85.628 Y115.453 E0.11263
G1 X84.782 Y115.143 E0.03404
G1 X87.199 Y117.560 E0.12919
G1 X86.663 Y117.560 E0.02025
G1 X83.937 Y114.834 E0.14575
G1 X83.091 Y114.524 E0.03404
G1 X86.128 Y117.560 E0.16231
G1 X85.592 Y117.560 E0.02025
G1 X82.246 Y114.214 E0.17887
G1 X81.400 Y113.904 E0.03404
G1 X85.056 Y117.560 E0.19543
G1 X84.520 Y117.560 E0.02025
G1 X80.555 Y113.595 E0.21199
G1 X79.709 Y113.285 E0.03404
G1 X83.985 Y117.560 E0.22855
G1 X83.449 Y117.560 E0.02025
G1 X78.864 Y112.975 E0.24511
G1 X78.018 Y112.665 E0.03404
G1 X82.913 Y117.560 E0.26167
G1 X82.377 Y117.560 E0.02025
G1 X77.670 Y112.852 E0.25167
G1 X77.669 Y113.388 E0.02023
G1 X81.842 Y117.560 E0.22305
M73 Q0 S132
G1 X81.306 Y117.560 E0.02025
G1 X77.669 Y113.923 E0.19444
G1 X77.668 Y114.458 E0.02023
G1 X80.770 Y117.560 E0.16583
G1 X80.234 Y117.560 E0.02025
G1 X77.668 Y114.993 E0.13722
M73 P0 R130
G1 X77.667 Y115.529 E0.02023
G1 X79.699 Y117.560 E0.10860
G1 X79.163 Y117.560 E0.02025
G1 X77.667 Y116.064 E0.07999
G1 X77.666 Y116.599 E0.02023
G1 X78.627 Y117.560 E0.05138
G1 X78.091 Y117.560 E0.02025
G1 X77.496 Y116.965 E0.03183
G1 F8640
G1 X78.091 Y117.560 E-0.19443
G1 X78.627 Y117.560 E-0.12371
G1 X77.666 Y116.599 E-0.31385
G1 X77.667 Y116.064 E-0.12359
G1 X77.680 Y116.077 E-0.00442
G1 E-0.04000 F2100.00000
G1 Z0.800 F10800.000
G1 X92.422 Y101.353
G1 Z0.200
G1 E0.80000 F2100.00000
G1 F1200
G1 X111.900 Y120.831 E1.04123
G1 X111.424 Y120.609 E0.01985
G1 X111.039 Y120.506 E0.01506
G1 X92.592 Y102.058 E0.98613
G1 X92.592 Y102.594 E0.02025
G1 X110.372 Y120.375 E0.95050
G1 X109.791 Y120.330 E0.02201
G1 X92.592 Y103.130 E0.91946
G1 X92.592 Y103.666 E0.02025
G1 X109.299 Y120.373 E0.89312
G1 X109.050 Y120.395 E0.00944
G1 X108.839 Y120.449 E0.00822
G1 X92.592 Y104.201 E0.86856
G1 X92.592 Y104.737 E0.02025
G1 X108.414 Y120.559 E0.84582
G1 X108.230 Y120.607 E0.00720
G1 X108.022 Y120.704 E0.00864
G1 X92.592 Y105.273 E0.82489
G1 X92.592 Y105.809 E0.02025
G1 X107.657 Y120.874 E0.80536
G1 X107.488 Y120.953 E0.00704
G1 X107.319 Y121.072 E0.00783
G1 X92.592 Y106.344 E0.78728
G1 X92.592 Y106.880 E0.02025
G1 X107.004 Y121.292 E0.77043
G1 X106.821 Y121.420 E0.00844
G1 X106.708 Y121.533 E0.00601
G1 X92.592 Y107.416 E0.75464
G1 X92.592 Y107.952 E0.02025
G1 X106.441 Y121.801 E0.74033
G1 X106.245 Y121.996 E0.01046
G1 X106.185 Y122.081 E0.00392
G1 X92.592 Y108.487 E0.72669
G1 X92.592 Y109.023 E0.02025
G1 X105.965 Y122.396 E0.71490
G1 X105.752 Y122.719 E0.01462
G1 X92.592 Y109.559 E0.70351
G1 X92.592 Y110.095 E0.02025
G1 X105.581 Y123.084 E0.69440
G1 X105.419 Y123.457 E0.01538
G1 X92.592 Y110.630 E0.68569
G1 X92.592 Y111.166 E0.02025
G1 X105.306 Y123.880 E0.67965
G1 X105.223 Y124.189 E0.01207
G1 X105.211 Y124.322 E0.00505
G1 X92.592 Y111.702 E0.67462
G1 X92.592 Y112.238 E0.02025
G1 X105.168 Y124.814 E0.67231
G1 X105.152 Y125.000 E0.00705
G1 X105.184 Y125.366 E0.01388
G1 X92.592 Y112.773 E0.67315
G1 X92.592 Y113.309 E0.02025
G1 X105.270 Y125.988 E0.67776
G1 X105.433 Y126.598 E0.02388
G1 X105.511 Y126.764 E0.00692
G1 X96.745 Y117.998 E0.46860
G1 X96.745 Y118.534 E0.02025
G1 X111.033 Y132.822 E0.76380
